!!!COM: m.: TKk
!!!OTL: Hymn o miłości
**kern	**dynam	**kern	**dynam	**kern	**dynam	**kern	**dynam	**kern	**dynam	**kern	**dynam	**kern	**text	**dynam	**kern	**text	**dynam	**kern	**text	**dynam	**kern	**kern	**dynam	**kern	**dynam	**kern	**dynam	**kern	**dynam	**kern	**dynam
*part14	*part14	*part13	*part13	*part12	*part12	*part11	*part11	*part10	*part10	*part9	*part9	*part8	*part8	*part8	*part7	*part7	*part7	*part6	*part6	*part6	*part5	*part5	*part5	*part4	*part4	*part3	*part3	*part2	*part2	*part1	*part1
*staff15	*	*staff14	*	*staff13	*	*staff12	*	*staff11	*	*staff10	*	*staff9	*staff9	*	*staff8	*staff8	*	*staff7	*staff7	*	*staff6	*staff5	*	*staff4	*	*staff3	*	*staff2	*	*staff1	*
*I"Contrabbassi	*	*I"Violoncelli	*	*I"Viole	*	*I"Violini 2	*	*I"Violini 1	*	*I"Tenore Basso	*	*I"Soprano Alto	*	*	*I"Tenore solo	*	*	*I"Soprano solo	*	*	*I"Arpa	*	*	*I"Fagotto	*	*I"Clarinetto in B♭	*	*I"Oboe	*	*I"Flauto	*
*I'C-b.	*	*I'V-c.	*	*I'V-le	*	*I'V-ni 2	*	*I'V-ni 1	*	*I'T B	*	*I'S A	*	*	*I'T solo	*	*	*I'S solo	*	*	*I'Ar.	*	*	*I'Fag.	*	*I'Cl. in B♭	*	*I'Ob.	*	*I'Fl.	*
*clefF4	*	*clefF4	*	*clefC3	*	*clefG2	*	*clefG2	*	*clefF4	*	*clefG2	*	*	*clefGv2	*	*	*clefG2	*	*	*clefF4	*clefG2	*	*clefF4	*	*clefG2	*	*clefG2	*	*clefG2	*
*ITrd0c0	*	*	*	*	*	*	*	*	*	*	*	*	*	*	*	*	*	*	*	*	*	*	*	*	*	*ITrd1c2	*	*	*	*	*
*k[b-]	*	*k[b-]	*	*k[b-]	*	*k[b-]	*	*k[b-]	*	*k[b-]	*	*k[b-]	*	*	*k[b-]	*	*	*k[b-]	*	*	*k[b-]	*k[b-]	*	*k[b-]	*	*k[b-]	*	*k[b-]	*	*k[b-]	*
*M4/4	*	*M4/4	*	*M4/4	*	*M4/4	*	*M4/4	*	*M4/4	*	*M4/4	*	*	*M4/4	*	*	*M4/4	*	*	*M4/4	*M4/4	*	*M4/4	*	*M4/4	*	*M4/4	*	*M4/4	*
=1	=1	=1	=1	=1	=1	=1	=1	=1	=1	=1	=1	=1	=1	=1	=1	=1	=1	=1	=1	=1	=1	=1	=1	=1	=1	=1	=1	=1	=1	=1	=1
8r	.	8r	.	4r	.	4r	.	4r	.	4r	.	4r	.	.	4r	.	.	4r	.	.	4r	4r	.	4r	.	4r	.	4r	.	4r	.
8AA	mp	8AA	mp	.	.	.	.	.	.	.	.	.	.	.	.	.	.	.	.	.	.	.	.	.	.	.	.	.	.	.	.
=	=	=	=	=	=	=	=	=	=	=	=	=	=	=	=	=	=	=	=	=	=	=	=	=	=	=	=	=	=	=	=
1D	<	1D	<	2.r	.	2r	.	2r	.	1r	.	1r	.	.	1r	.	.	1r	.	.	1r	1r	.	1r	.	1r	.	1r	.	1r	.
.	.	.	.	.	.	4r	.	4e	mp <	.	.	.	.	.	.	.	.	.	.	.	.	.	.	.	.	.	.	.	.	.	.
.	.	.	.	4r	.	4c	mp <	[4f	.	.	.	.	.	.	.	.	.	.	.	.	.	.	.	.	.	.	.	.	.	.	.
=	=	=	=	=	=	=	=	=	=	=	=	=	=	=	=	=	=	=	=	=	=	=	=	=	=	=	=	=	=	=	=
1BB-	.	1BB-	.	4G	mp <	4d	.	2f]	.	1r	.	1r	.	.	1r	.	.	1r	.	.	1r	1r	.	1r	.	1r	.	1r	.	1r	.
.	.	.	.	4A	.	4e	.	.	.	.	.	.	.	.	.	.	.	.	.	.	.	.	.	.	.	.	.	.	.	.	.
.	.	.	.	2B-	.	4d	.	4f	.	.	.	.	.	.	.	.	.	.	.	.	.	.	.	.	.	.	.	.	.	.	.
.	.	.	.	.	.	4c	.	[4g	.	.	.	.	.	.	.	.	.	.	.	.	.	.	.	.	.	.	.	.	.	.	.
=	=	=	=	=	=	=	=	=	=	=	=	=	=	=	=	=	=	=	=	=	=	=	=	=	=	=	=	=	=	=	=
1F	.	1F	.	4A	.	4e	.	2g]	.	1r	.	1r	.	.	1r	.	.	1r	.	.	1r	1r	.	1r	.	1r	.	1r	.	1r	.
.	.	.	.	4B-	.	4f	.	.	.	.	.	.	.	.	.	.	.	.	.	.	.	.	.	.	.	.	.	.	.	.	.
.	.	.	.	2c	.	4e	.	4g	.	.	.	.	.	.	.	.	.	.	.	.	.	.	.	.	.	.	.	.	.	.	.
.	.	.	.	.	.	4d	.	[4a	.	.	.	.	.	.	.	.	.	.	.	.	.	.	.	.	.	.	.	.	.	.	.
=	=	=	=	=	=	=	=	=	=	=	=	=	=	=	=	=	=	=	=	=	=	=	=	=	=	=	=	=	=	=	=
1C	.	1C	.	4B-	.	4f	.	2a]	.	1r	.	1r	.	.	1r	.	.	1r	.	.	1r	1r	.	1r	.	1r	.	1r	.	1r	.
.	.	.	.	4c	.	4g	.	.	.	.	.	.	.	.	.	.	.	.	.	.	.	.	.	.	.	.	.	.	.	.	.
.	.	.	.	2d	.	4f	.	4a	.	.	.	.	.	.	.	.	.	.	.	.	.	.	.	.	.	.	.	.	.	.	.
.	.	.	.	.	.	4e	.	[4g	.	.	.	.	.	.	.	.	.	.	.	.	.	.	.	.	.	.	.	.	.	.	.
=	=	=	=	=	=	=	=	=	=	=	=	=	=	=	=	=	=	=	=	=	=	=	=	=	=	=	=	=	=	=	=
1D	.	1D	.	4B-	.	2c	.	4g]	.	1r	.	1r	.	.	1r	.	.	1r	.	.	1r	1r	.	1r	.	1r	.	1r	.	1r	.
.	.	.	.	4A	.	.	.	4f	.	.	.	.	.	.	.	.	.	.	.	.	.	.	.	.	.	.	.	.	.	.	.
.	.	.	.	4G	.	4B-	.	4e	.	.	.	.	.	.	.	.	.	.	.	.	.	.	.	.	.	.	.	.	.	.	.
.	.	.	.	4A	.	4c	.	[4f	.	.	.	.	.	.	.	.	.	.	.	.	.	.	.	.	.	.	.	.	.	.	.
=	=	=	=	=	=	=	=	=	=	=	=	=	=	=	=	=	=	=	=	=	=	=	=	=	=	=	=	=	=	=	=
1BB-	.	1BB-	.	4G	.	4d	.	2f]	.	1r	.	1r	.	.	1r	.	.	1r	.	.	1r	1r	.	1r	.	1r	.	1r	.	1r	.
.	.	.	.	4A	.	4e	.	.	.	.	.	.	.	.	.	.	.	.	.	.	.	.	.	.	.	.	.	.	.	.	.
.	.	.	.	2B-	.	4d	.	4f	.	.	.	.	.	.	.	.	.	.	.	.	.	.	.	.	.	.	.	.	.	.	.
.	.	.	.	.	.	4c	.	[4g	.	.	.	.	.	.	.	.	.	.	.	.	.	.	.	.	.	.	.	.	.	.	.
=	=	=	=	=	=	=	=	=	=	=	=	=	=	=	=	=	=	=	=	=	=	=	=	=	=	=	=	=	=	=	=
1F	.	1F	.	4A	.	4e	.	2g]	.	1r	.	1r	.	.	1r	.	.	1r	.	.	1r	1r	.	1r	.	1r	.	1r	.	1r	.
.	.	.	.	4B-	.	4f	.	.	.	.	.	.	.	.	.	.	.	.	.	.	.	.	.	.	.	.	.	.	.	.	.
.	.	.	.	2c	.	4e	.	4g	.	.	.	.	.	.	.	.	.	.	.	.	.	.	.	.	.	.	.	.	.	.	.
.	.	.	.	.	.	4d	.	[4a	.	.	.	.	.	.	.	.	.	.	.	.	.	.	.	.	.	.	.	.	.	.	.
=	=	=	=	=	=	=	=	=	=	=	=	=	=	=	=	=	=	=	=	=	=	=	=	=	=	=	=	=	=	=	=
1C	[[	1C	[[	4B-	.	4f	.	2a]	.	1r	.	1r	.	.	1r	.	.	1r	.	.	1r	1r	.	1r	.	1r	.	1r	.	1r	.
.	.	.	.	4c	.	4g	.	.	.	.	.	.	.	.	.	.	.	.	.	.	.	.	.	.	.	.	.	.	.	.	.
.	.	.	.	2d	[[	4f	.	4a	.	.	.	.	.	.	.	.	.	.	.	.	.	.	.	.	.	.	.	.	.	.	.
.	.	.	.	.	.	4e	[[	[4b-	[[	.	.	.	.	.	.	.	.	.	.	.	.	.	.	.	.	.	.	.	.	.	.
=	=	=	=	=	=	=	=	=	=	=	=	=	=	=	=	=	=	=	=	=	=	=	=	=	=	=	=	=	=	=	=
1D	mf <	1D	mf <	4c	mf <	4g	mf <	2b-]	mf <	1r	.	1r	.	.	1r	.	.	1r	.	.	1r	1r	.	1r	.	1r	.	1r	.	1r	.
.	.	.	.	4d	.	4a	.	.	.	.	.	.	.	.	.	.	.	.	.	.	.	.	.	.	.	.	.	.	.	.	.
.	.	.	.	2e	.	4g	.	4b-	.	.	.	.	.	.	.	.	.	.	.	.	.	.	.	.	.	.	.	.	.	.	.
.	.	.	.	.	.	4f	.	[4cc	.	.	.	.	.	.	.	.	.	.	.	.	.	.	.	.	.	.	.	.	.	.	.
=	=	=	=	=	=	=	=	=	=	=	=	=	=	=	=	=	=	=	=	=	=	=	=	=	=	=	=	=	=	=	=
1BB-	.	1BB-	.	4d	.	4a	.	2cc]	.	1r	.	1r	.	.	1r	.	.	1r	.	.	1r	1r	.	1r	.	1r	.	1r	.	1r	.
.	.	.	.	4e	.	4b-	.	.	.	.	.	.	.	.	.	.	.	.	.	.	.	.	.	.	.	.	.	.	.	.	.
.	.	.	.	2f	.	4a	.	4cc	.	.	.	.	.	.	.	.	.	.	.	.	.	.	.	.	.	.	.	.	.	.	.
.	.	.	.	.	.	4g	.	[4dd	.	.	.	.	.	.	.	.	.	.	.	.	.	.	.	.	.	.	.	.	.	.	.
=	=	=	=	=	=	=	=	=	=	=	=	=	=	=	=	=	=	=	=	=	=	=	=	=	=	=	=	=	=	=	=
1F	.	1F	.	4e	.	4b-	.	2dd]	.	1r	.	1r	.	.	1r	.	.	1r	.	.	1r	1r	.	1r	.	1r	.	1r	.	1r	.
.	.	.	.	4f	.	4cc	.	.	.	.	.	.	.	.	.	.	.	.	.	.	.	.	.	.	.	.	.	.	.	.	.
.	.	.	.	2g	.	4b-	.	4dd	.	.	.	.	.	.	.	.	.	.	.	.	.	.	.	.	.	.	.	.	.	.	.
.	.	.	.	.	.	4a	.	[4cc	.	.	.	.	.	.	.	.	.	.	.	.	.	.	.	.	.	.	.	.	.	.	.
=	=	=	=	=	=	=	=	=	=	=	=	=	=	=	=	=	=	=	=	=	=	=	=	=	=	=	=	=	=	=	=
1C	.	1C	.	4e	.	2f	.	4cc]	.	1r	.	1r	.	.	1r	.	.	1r	.	.	1r	1r	.	1r	.	1r	.	1r	.	1r	.
.	.	.	.	4d	.	.	.	4b-	.	.	.	.	.	.	.	.	.	.	.	.	.	.	.	.	.	.	.	.	.	.	.
.	.	.	.	4c	.	4e	.	4a	.	.	.	.	.	.	.	.	.	.	.	.	.	.	.	.	.	.	.	.	.	.	.
.	.	.	.	4d	.	4f	.	[4b-	.	.	.	.	.	.	.	.	.	.	.	.	.	.	.	.	.	.	.	.	.	.	.
=	=	=	=	=	=	=	=	=	=	=	=	=	=	=	=	=	=	=	=	=	=	=	=	=	=	=	=	=	=	=	=
1D	.	1D	.	4c	.	4g	.	2b-]	.	1r	.	1r	.	.	1r	.	.	1r	.	.	1r	1r	.	1r	.	1r	.	1r	.	1r	.
.	.	.	.	4d	.	4a	.	.	.	.	.	.	.	.	.	.	.	.	.	.	.	.	.	.	.	.	.	.	.	.	.
.	.	.	.	2e	.	4g	.	4b-	.	.	.	.	.	.	.	.	.	.	.	.	.	.	.	.	.	.	.	.	.	.	.
.	.	.	.	.	.	4f	.	[4cc	.	.	.	.	.	.	.	.	.	.	.	.	.	.	.	.	.	.	.	.	.	.	.
=	=	=	=	=	=	=	=	=	=	=	=	=	=	=	=	=	=	=	=	=	=	=	=	=	=	=	=	=	=	=	=
1BB-	.	1BB-	.	4d	.	4a	.	2cc]	.	1r	.	1r	.	.	1r	.	.	1r	.	.	1r	1r	.	1r	.	1r	.	1r	.	1r	.
.	.	.	.	4e	.	4b-	.	.	.	.	.	.	.	.	.	.	.	.	.	.	.	.	.	.	.	.	.	.	.	.	.
.	.	.	.	2f	.	4a	.	4cc	.	.	.	.	.	.	.	.	.	.	.	.	.	.	.	.	.	.	.	.	.	.	.
.	.	.	.	.	.	4g	.	[4dd	.	.	.	.	.	.	.	.	.	.	.	.	.	.	.	.	.	.	.	.	.	.	.
=	=	=	=	=	=	=	=	=	=	=	=	=	=	=	=	=	=	=	=	=	=	=	=	=	=	=	=	=	=	=	=
1F	.	1F	.	4e	.	4b-	.	2dd]	.	1r	.	1r	.	.	1r	.	.	1r	.	.	1r	1r	.	1r	.	1r	.	1r	.	1r	.
.	.	.	.	4f	.	4cc	.	.	.	.	.	.	.	.	.	.	.	.	.	.	.	.	.	.	.	.	.	.	.	.	.
.	.	.	.	2g	.	4b-	.	4dd	.	.	.	.	.	.	.	.	.	.	.	.	.	.	.	.	.	.	.	.	.	.	.
.	.	.	.	.	.	4a	.	[4ee	.	.	.	.	.	.	.	.	.	.	.	.	.	.	.	.	.	.	.	.	.	.	.
=	=	=	=	=	=	=	=	=	=	=	=	=	=	=	=	=	=	=	=	=	=	=	=	=	=	=	=	=	=	=	=
1C	[[	1C	[[	4f	.	4cc	.	2ee]	.	1r	.	1r	.	.	1r	.	.	1r	.	.	2r	2cc	f	2.r	.	2.r	.	8cL	f <	4r	.
.	.	.	.	.	.	.	.	.	.	.	.	.	.	.	.	.	.	.	.	.	.	.	.	.	.	.	.	8d	.	.	.
.	.	.	.	4g	.	4dd	.	.	.	.	.	.	.	.	.	.	.	.	.	.	.	.	.	.	.	.	.	8e	.	8gL	f <
.	.	.	.	.	.	.	.	.	.	.	.	.	.	.	.	.	.	.	.	.	.	.	.	.	.	.	.	8fJ	.	8aJ	.
.	.	.	.	4f	.	4cc	.	4ff	.	.	.	.	.	.	.	.	.	.	.	.	2C	2r	.	.	.	.	.	8gL	.	8ccL	.
.	.	.	.	.	.	.	.	.	.	.	.	.	.	.	.	.	.	.	.	.	.	.	.	.	.	.	.	8a	.	8dd	.
.	.	.	.	[4e	[[	[4b-	[[	[4gg	[[	.	.	.	.	.	.	.	.	.	.	.	.	.	.	16CLL	f	16eLL	f	8cc	.	8ee	.
.	.	.	.	.	.	.	.	.	.	.	.	.	.	.	.	.	.	.	.	.	.	.	.	16GG	.	16c	.	.	.	.	.
.	.	.	.	.	.	.	.	.	.	.	.	.	.	.	.	.	.	.	.	.	.	.	.	16C	.	16e	.	[8eeJ	[[	[8ggJ	[[
.	.	.	.	.	.	.	.	.	.	.	.	.	.	.	.	.	.	.	.	.	.	.	.	16EJJ	.	16gJJ	.	.	.	.	.
=	=	=	=	=	=	=	=	=	=	=	=	=	=	=	=	=	=	=	=	=	=	=	=	=	=	=	=	=	=	=	=
1D	ff	1D	ff	4.e]	ff	4.b-]	ff	4.gg]	ff	1r	.	1r	.	.	1r	.	.	1r	.	.	2DD: 2D: 2A:	2d: 2g: 2b-: 2ee: 2gg: 2bb-: 2ddd:	.	16D^LL	.	16a^LL	.	4.ee]	ff	4.gg]	ff
.	.	.	.	.	.	.	.	.	.	.	.	.	.	.	.	.	.	.	.	.	.	.	.	16A	.	16f	.	.	.	.	.
.	.	.	.	.	.	.	.	.	.	.	.	.	.	.	.	.	.	.	.	.	.	.	.	16G	.	16e	.	.	.	.	.
.	.	.	.	.	.	.	.	.	.	.	.	.	.	.	.	.	.	.	.	.	.	.	.	16AJJ	.	16fJJ	.	.	.	.	.
.	.	.	.	.	.	.	.	.	.	.	.	.	.	.	.	.	.	.	.	.	.	.	.	16D^LL	.	16a^LL	.	.	.	.	.
.	.	.	.	.	.	.	.	.	.	.	.	.	.	.	.	.	.	.	.	.	.	.	.	16A	.	16f	.	.	.	.	.
.	.	.	.	4.d	.	4.a	.	4.ff	.	.	.	.	.	.	.	.	.	.	.	.	.	.	.	16G	.	16e	.	4.dd	.	4.ff	.
.	.	.	.	.	.	.	.	.	.	.	.	.	.	.	.	.	.	.	.	.	.	.	.	16AJJ	.	16fJJ	.	.	.	.	.
.	.	.	.	.	.	.	.	.	.	.	.	.	.	.	.	.	.	.	.	.	2r	2r	.	16D^LL	.	16a^LL	.	.	.	.	.
.	.	.	.	.	.	.	.	.	.	.	.	.	.	.	.	.	.	.	.	.	.	.	.	16A	.	16f	.	.	.	.	.
.	.	.	.	.	.	.	.	.	.	.	.	.	.	.	.	.	.	.	.	.	.	.	.	16G	.	16e	.	.	.	.	.
.	.	.	.	.	.	.	.	.	.	.	.	.	.	.	.	.	.	.	.	.	.	.	.	16AJJ	.	16fJJ	.	.	.	.	.
.	.	.	.	4c	.	4g	.	4ee	.	.	.	.	.	.	.	.	.	.	.	.	.	.	.	16D^LL	.	16a^LL	.	4cc	.	4ee	.
.	.	.	.	.	.	.	.	.	.	.	.	.	.	.	.	.	.	.	.	.	.	.	.	16A	.	16f	.	.	.	.	.
.	.	.	.	.	.	.	.	.	.	.	.	.	.	.	.	.	.	.	.	.	.	.	.	16G	.	16e	.	.	.	.	.
.	.	.	.	.	.	.	.	.	.	.	.	.	.	.	.	.	.	.	.	.	.	.	.	16AJJ	.	16fJJ	.	.	.	.	.
=	=	=	=	=	=	=	=	=	=	=	=	=	=	=	=	=	=	=	=	=	=	=	=	=	=	=	=	=	=	=	=
1BB-	.	1BB-	.	4.e	.	4.b-	.	4.gg	.	1r	.	1r	.	.	1r	.	.	1r	.	.	2BB-: 2F: 2B-:	2d: 2g: 2b-: 2ee: 2gg: 2bb-:	.	16BB-^LL	.	16g^LL	.	4.ee	.	4.gg	.
.	.	.	.	.	.	.	.	.	.	.	.	.	.	.	.	.	.	.	.	.	.	.	.	16A	.	16f	.	.	.	.	.
.	.	.	.	.	.	.	.	.	.	.	.	.	.	.	.	.	.	.	.	.	.	.	.	16G	.	16e	.	.	.	.	.
.	.	.	.	.	.	.	.	.	.	.	.	.	.	.	.	.	.	.	.	.	.	.	.	16AJJ	.	16fJJ	.	.	.	.	.
.	.	.	.	.	.	.	.	.	.	.	.	.	.	.	.	.	.	.	.	.	.	.	.	16BB-^LL	.	16g^LL	.	.	.	.	.
.	.	.	.	.	.	.	.	.	.	.	.	.	.	.	.	.	.	.	.	.	.	.	.	16A	.	16f	.	.	.	.	.
.	.	.	.	[8d	.	[8a	.	[8ff	.	.	.	.	.	.	.	.	.	.	.	.	.	.	.	16G	.	16e	.	[8dd	.	[8ff	.
.	.	.	.	.	.	.	.	.	.	.	.	.	.	.	.	.	.	.	.	.	.	.	.	16AJJ	.	16fJJ	.	.	.	.	.
.	.	.	.	2d]	.	2a]	.	2ff]	.	.	.	.	.	.	.	.	.	.	.	.	2rF	2r	.	16BB-^LL	.	16g^LL	.	2dd]	.	2ff]	.
.	.	.	.	.	.	.	.	.	.	.	.	.	.	.	.	.	.	.	.	.	.	.	.	16A	.	16f	.	.	.	.	.
.	.	.	.	.	.	.	.	.	.	.	.	.	.	.	.	.	.	.	.	.	.	.	.	16G	.	16e	.	.	.	.	.
.	.	.	.	.	.	.	.	.	.	.	.	.	.	.	.	.	.	.	.	.	.	.	.	16AJJ	.	16fJJ	.	.	.	.	.
.	.	.	.	.	.	.	.	.	.	.	.	.	.	.	.	.	.	.	.	.	.	.	.	16BB-^LL	.	16g^LL	.	.	.	.	.
.	.	.	.	.	.	.	.	.	.	.	.	.	.	.	.	.	.	.	.	.	.	.	.	16A	.	16f	.	.	.	.	.
.	.	.	.	.	.	.	.	.	.	.	.	.	.	.	.	.	.	.	.	.	.	.	.	16G	.	16e	.	.	.	.	.
.	.	.	.	.	.	.	.	.	.	.	.	.	.	.	.	.	.	.	.	.	.	.	.	16AJJ	.	16fJJ	.	.	.	.	.
=	=	=	=	=	=	=	=	=	=	=	=	=	=	=	=	=	=	=	=	=	=	=	=	=	=	=	=	=	=	=	=
1F	.	1F	.	2.c	.	2.a	.	4.gg	.	1r	.	1r	.	.	1r	.	.	1r	.	.	2FF: 2F: 2c:	2f: 2a: 2cc: 2ff: 2gg: 2aa:	.	16FF^LL	.	16a^LL	.	2.cc	.	4.gg	.
.	.	.	.	.	.	.	.	.	.	.	.	.	.	.	.	.	.	.	.	.	.	.	.	16A	.	16f	.	.	.	.	.
.	.	.	.	.	.	.	.	.	.	.	.	.	.	.	.	.	.	.	.	.	.	.	.	16G	.	16e	.	.	.	.	.
.	.	.	.	.	.	.	.	.	.	.	.	.	.	.	.	.	.	.	.	.	.	.	.	16AJJ	.	16fJJ	.	.	.	.	.
.	.	.	.	.	.	.	.	.	.	.	.	.	.	.	.	.	.	.	.	.	.	.	.	16FF^LL	.	16a^LL	.	.	.	.	.
.	.	.	.	.	.	.	.	.	.	.	.	.	.	.	.	.	.	.	.	.	.	.	.	16A	.	16f	.	.	.	.	.
.	.	.	.	.	.	.	.	4.aa	.	.	.	.	.	.	.	.	.	.	.	.	.	.	.	16G	.	16e	.	.	.	4.aa	.
.	.	.	.	.	.	.	.	.	.	.	.	.	.	.	.	.	.	.	.	.	.	.	.	16AJJ	.	16fJJ	.	.	.	.	.
.	.	.	.	.	.	.	.	.	.	.	.	.	.	.	.	.	.	.	.	.	2rF	2r	.	16FF^LL	.	16a^LL	.	.	.	.	.
.	.	.	.	.	.	.	.	.	.	.	.	.	.	.	.	.	.	.	.	.	.	.	.	16A	.	16f	.	.	.	.	.
.	.	.	.	.	.	.	.	.	.	.	.	.	.	.	.	.	.	.	.	.	.	.	.	16G	.	16e	.	.	.	.	.
.	.	.	.	.	.	.	.	.	.	.	.	.	.	.	.	.	.	.	.	.	.	.	.	16AJJ	.	16fJJ	.	.	.	.	.
.	.	.	.	4e	.	4b-	.	4gg	.	.	.	.	.	.	.	.	.	.	.	.	.	.	.	16FF^LL	.	16a^LL	.	4ee	.	4gg	.
.	.	.	.	.	.	.	.	.	.	.	.	.	.	.	.	.	.	.	.	.	.	.	.	16A	.	16f	.	.	.	.	.
.	.	.	.	.	.	.	.	.	.	.	.	.	.	.	.	.	.	.	.	.	.	.	.	16G	.	16e	.	.	.	.	.
.	.	.	.	.	.	.	.	.	.	.	.	.	.	.	.	.	.	.	.	.	.	.	.	16AJJ	.	16fJJ	.	.	.	.	.
=	=	=	=	=	=	=	=	=	=	=	=	=	=	=	=	=	=	=	=	=	=	=	=	=	=	=	=	=	=	=	=
1C	.	1C	.	4.d	.	4.a	.	4.ff	.	1r	.	1r	.	.	1r	.	.	1r	.	.	2C: 2G: 2c:	4.f: 4.a: 4.cc: 4.dd: 4.ff: 4.aa:	.	16C^LL	.	16g^LL	.	4.dd	.	4.ff	.
.	.	.	.	.	.	.	.	.	.	.	.	.	.	.	.	.	.	.	.	.	.	.	.	16A	.	16f	.	.	.	.	.
.	.	.	.	.	.	.	.	.	.	.	.	.	.	.	.	.	.	.	.	.	.	.	.	16G	.	16e	.	.	.	.	.
.	.	.	.	.	.	.	.	.	.	.	.	.	.	.	.	.	.	.	.	.	.	.	.	16AJJ	.	16fJJ	.	.	.	.	.
.	.	.	.	.	.	.	.	.	.	.	.	.	.	.	.	.	.	.	.	.	.	.	.	16C^LL	.	16g^LL	.	.	.	.	.
.	.	.	.	.	.	.	.	.	.	.	.	.	.	.	.	.	.	.	.	.	.	.	.	16A	.	16f	.	.	.	.	.
.	.	.	.	4e	.	4b-	.	4gg	.	.	.	.	.	.	.	.	.	.	.	.	.	4.c: 4.e: 4.g: 4.cc: 4.ee: 4.gg: 4.ccc:	.	16G	.	16e	.	[2ee	.	[2gg	.
.	.	.	.	.	.	.	.	.	.	.	.	.	.	.	.	.	.	.	.	.	.	.	.	16AJJ	.	16fJJ	.	.	.	.	.
.	.	.	.	.	.	.	.	.	.	.	.	.	.	.	.	.	.	.	.	.	2rF	.	.	16C^LL	.	16g^LL	.	.	.	.	.
.	.	.	.	.	.	.	.	.	.	.	.	.	.	.	.	.	.	.	.	.	.	.	.	16G	.	16e	.	.	.	.	.
.	.	.	.	8AL	.	8eL	.	8ccL	.	.	.	.	.	.	.	.	.	.	.	.	.	.	.	16F	.	16d	.	.	.	.	.
.	.	.	.	.	.	.	.	.	.	.	.	.	.	.	.	.	.	.	.	.	.	.	.	16GJJ	.	16eJJ	.	.	.	.	.
.	.	.	.	8c	.	8g	.	8ee	.	.	.	.	.	.	.	.	.	.	.	.	.	4r	.	16C^LL	.	16g^LL	.	.	.	.	.
.	.	.	.	.	.	.	.	.	.	.	.	.	.	.	.	.	.	.	.	.	.	.	.	16G	.	16c	.	.	.	.	.
.	.	.	.	(8eJ	.	[8b-J	.	[8ggJ	.	.	.	.	.	.	.	.	.	.	.	.	.	.	.	16F	.	16f	.	8ee_	.	8gg_	.
.	.	.	.	.	.	.	.	.	.	.	.	.	.	.	.	.	.	.	.	.	.	.	.	16GJJ	.	16eJJ	.	.	.	.	.
=	=	=	=	=	=	=	=	=	=	=	=	=	=	=	=	=	=	=	=	=	=	=	=	=	=	=	=	=	=	=	=
1D	.	1D	.	4.e)	.	4.b-]	.	4.gg]	.	1r	.	1r	.	.	1r	.	.	1r	.	.	2DD: 2D: 2A:	2d: 2g: 2b-: 2ee: 2gg: 2bb-:	.	16D^LL	.	16f^LL	.	4.ee]	.	4.gg]	.
.	.	.	.	.	.	.	.	.	.	.	.	.	.	.	.	.	.	.	.	.	.	.	.	16F	.	16d	.	.	.	.	.
.	.	.	.	.	.	.	.	.	.	.	.	.	.	.	.	.	.	.	.	.	.	.	.	16E	.	16c	.	.	.	.	.
.	.	.	.	.	.	.	.	.	.	.	.	.	.	.	.	.	.	.	.	.	.	.	.	16FJJ	.	16dJJ	.	.	.	.	.
.	.	.	.	.	.	.	.	.	.	.	.	.	.	.	.	.	.	.	.	.	.	.	.	16D^LL	.	16f^LL	.	.	.	.	.
.	.	.	.	.	.	.	.	.	.	.	.	.	.	.	.	.	.	.	.	.	.	.	.	16F	.	16d	.	.	.	.	.
.	.	.	.	4.d	.	4.a	.	4.ff	.	.	.	.	.	.	.	.	.	.	.	.	.	.	.	16E	.	16c	.	4.dd	.	4.ff	.
.	.	.	.	.	.	.	.	.	.	.	.	.	.	.	.	.	.	.	.	.	.	.	.	16FJJ	.	16dJJ	.	.	.	.	.
.	.	.	.	.	.	.	.	.	.	.	.	.	.	.	.	.	.	.	.	.	2r	2r	.	16D^LL	.	16f^LL	.	.	.	.	.
.	.	.	.	.	.	.	.	.	.	.	.	.	.	.	.	.	.	.	.	.	.	.	.	16F	.	16d	.	.	.	.	.
.	.	.	.	.	.	.	.	.	.	.	.	.	.	.	.	.	.	.	.	.	.	.	.	16E	.	16c	.	.	.	.	.
.	.	.	.	.	.	.	.	.	.	.	.	.	.	.	.	.	.	.	.	.	.	.	.	16FJJ	.	16dJJ	.	.	.	.	.
.	.	.	.	[4c	.	[4g	.	[4ee	.	.	.	.	.	.	.	.	.	.	.	.	.	.	.	16D^LL	.	16f^LL	.	[4cc	.	[4ee	.
.	.	.	.	.	.	.	.	.	.	.	.	.	.	.	.	.	.	.	.	.	.	.	.	16F	.	16d	.	.	.	.	.
.	.	.	.	.	.	.	.	.	.	.	.	.	.	.	.	.	.	.	.	.	.	.	.	16E	.	16c	.	.	.	.	.
.	.	.	.	.	.	.	.	.	.	.	.	.	.	.	.	.	.	.	.	.	.	.	.	16FJJ	.	16dJJ	.	.	.	.	.
=	=	=	=	=	=	=	=	=	=	=	=	=	=	=	=	=	=	=	=	=	=	=	=	=	=	=	=	=	=	=	=
1BB-	>	1BB-	>	4.c]	>	4.g]	>	4.ee]	>	1r	.	1r	.	.	1r	.	.	1r	.	.	2BB-: 2F: 2B-:	2d: 2g: 2b-: 2ee: 2gg:	.	16BB-^LL	>	16g^LL	>	4.cc]	>	4.ee]	>
.	.	.	.	.	.	.	.	.	.	.	.	.	.	.	.	.	.	.	.	.	.	.	.	16F	.	16d	.	.	.	.	.
.	.	.	.	.	.	.	.	.	.	.	.	.	.	.	.	.	.	.	.	.	.	.	.	16E	.	16c	.	.	.	.	.
.	.	.	.	.	.	.	.	.	.	.	.	.	.	.	.	.	.	.	.	.	.	.	.	16FJJ	.	16dJJ	.	.	.	.	.
.	.	.	.	.	.	.	.	.	.	.	.	.	.	.	.	.	.	.	.	.	.	.	.	16BB-^LL	.	16g^LL	.	.	.	.	.
.	.	.	.	.	.	.	.	.	.	.	.	.	.	.	.	.	.	.	.	.	.	.	.	16F	.	16d	.	.	.	.	.
.	.	.	.	[8B-	.	[8f	.	4.dd	.	.	.	.	.	.	.	.	.	.	.	.	.	.	.	16E	.	16c	.	4.b-	.	4.dd	.
.	.	.	.	.	.	.	.	.	.	.	.	.	.	.	.	.	.	.	.	.	.	.	.	16FJJ	.	16dJJ	.	.	.	.	.
.	.	.	.	2B-]	.	2f]	.	.	.	.	.	.	.	.	.	.	.	.	.	.	2rF	2r	.	16BB-^LL	.	16g^LL	.	.	.	.	.
.	.	.	.	.	.	.	.	.	.	.	.	.	.	.	.	.	.	.	.	.	.	.	.	16F	.	16d	.	.	.	.	.
.	.	.	.	.	.	.	.	.	.	.	.	.	.	.	.	.	.	.	.	.	.	.	.	16E	.	16c	.	.	.	.	.
.	.	.	.	.	.	.	.	.	.	.	.	.	.	.	.	.	.	.	.	.	.	.	.	16FJJ	.	16dJJ	.	.	.	.	.
.	.	.	.	.	.	.	.	4cc	.	.	.	.	.	.	.	.	.	.	.	.	.	.	.	16BB-^LL	.	16g^LL	.	4cc	.	4ff	.
.	.	.	.	.	.	.	.	.	.	.	.	.	.	.	.	.	.	.	.	.	.	.	.	16F	.	16d	.	.	.	.	.
.	.	.	.	.	.	.	.	.	.	.	.	.	.	.	.	.	.	.	.	.	.	.	.	16E	.	16c	.	.	.	.	.
.	.	.	.	.	.	.	.	.	.	.	.	.	.	.	.	.	.	.	.	.	.	.	.	16FJJ	.	16dJJ	.	.	.	.	.
=	=	=	=	=	=	=	=	=	=	=	=	=	=	=	=	=	=	=	=	=	=	=	=	=	=	=	=	=	=	=	=
1F	.	1F	.	4.G	.	1f	.	4.b-	.	1r	.	1r	.	.	1r	.	.	1r	.	.	2FF: 2F: 2c:	2f: 2a: 2cc: 2gg:	.	16FF^LL	.	16g^LL	.	4.b-	.	4.gg	.
.	.	.	.	.	.	.	.	.	.	.	.	.	.	.	.	.	.	.	.	.	.	.	.	16F	.	16d	.	.	.	.	.
.	.	.	.	.	.	.	.	.	.	.	.	.	.	.	.	.	.	.	.	.	.	.	.	16E	.	16c	.	.	.	.	.
.	.	.	.	.	.	.	.	.	.	.	.	.	.	.	.	.	.	.	.	.	.	.	.	16FJJ	.	16dJJ	.	.	.	.	.
.	.	.	.	.	.	.	.	.	.	.	.	.	.	.	.	.	.	.	.	.	.	.	.	16FF^LL	.	16g^LL	.	.	.	.	.
.	.	.	.	.	.	.	.	.	.	.	.	.	.	.	.	.	.	.	.	.	.	.	.	16F	.	16d	.	.	.	.	.
.	.	.	.	4.A	.	.	.	4.a	.	.	.	.	.	.	.	.	.	.	.	.	.	.	.	16E	.	16c	.	4.a	.	4.ff	.
.	.	.	.	.	.	.	.	.	.	.	.	.	.	.	.	.	.	.	.	.	.	.	.	16FJJ	.	16dJJ	.	.	.	.	.
.	.	.	.	.	.	.	.	.	.	.	.	.	.	.	.	.	.	.	.	.	2rF	2r	.	16FF^LL	.	16a^LL	.	.	.	.	.
.	.	.	.	.	.	.	.	.	.	.	.	.	.	.	.	.	.	.	.	.	.	.	.	16F	.	16d	.	.	.	.	.
.	.	.	.	.	.	.	.	.	.	.	.	.	.	.	.	.	.	.	.	.	.	.	.	16E	.	16c	.	.	.	.	.
.	.	.	.	.	.	.	.	.	.	.	.	.	.	.	.	.	.	.	.	.	.	.	.	16FJJ	.	16dJJ	.	.	.	.	.
.	.	.	.	4B-	.	.	.	4g	.	.	.	.	.	.	.	.	.	.	.	.	.	.	.	16FF^LL	.	16a^LL	.	4b-	.	4gg	.
.	.	.	.	.	.	.	.	.	.	.	.	.	.	.	.	.	.	.	.	.	.	.	.	16F	.	16d	.	.	.	.	.
.	.	.	.	.	.	.	.	.	.	.	.	.	.	.	.	.	.	.	.	.	.	.	.	16E	.	16c	.	.	.	.	.
.	.	.	.	.	.	.	.	.	.	.	.	.	.	.	.	.	.	.	.	.	.	.	.	16FJJ	.	16dJJ	.	.	.	.	.
=	=	=	=	=	=	=	=	=	=	=	=	=	=	=	=	=	=	=	=	=	=	=	=	=	=	=	=	=	=	=	=
1C	]]	1C	]]	4.A	.	4.d	.	4.f	.	1r	.	1r	.	.	1r	.	.	1r	.	.	2C: 2G: 2c:	4.d: 4.f: 4.a: 4.dd: 4.ff:	.	16C^LL	.	16g^LL	.	4.a	.	4.ff	.
.	.	.	.	.	.	.	.	.	.	.	.	.	.	.	.	.	.	.	.	.	.	.	.	16F	.	16d	.	.	.	.	.
.	.	.	.	.	.	.	.	.	.	.	.	.	.	.	.	.	.	.	.	.	.	.	.	16E	.	16c	.	.	.	.	.
.	.	.	.	.	.	.	.	.	.	.	.	.	.	.	.	.	.	.	.	.	.	.	.	16FJJ	.	16dJJ	.	.	.	.	.
.	.	.	.	.	.	.	.	.	.	.	.	.	.	.	.	.	.	.	.	.	.	.	.	16C^LL	.	16g^LL	.	.	.	.	.
.	.	.	.	.	.	.	.	.	.	.	.	.	.	.	.	.	.	.	.	.	.	.	.	16F	.	16d	.	.	.	.	.
.	.	.	.	4.G	.	[8c	.	[8e	.	.	.	.	.	.	.	.	.	.	.	.	.	4.c: 4.e: 4.g: 4.cc: 4.ee:	.	16E	.	16c	.	[8g	] mf	[8ee	] mf
.	.	.	.	.	.	.	.	.	.	.	.	.	.	.	.	.	.	.	.	.	.	.	.	16FJJ	.	16dJJ	.	.	.	.	.
.	.	.	.	.	.	2c]	]]	2e]	]]	.	.	.	.	.	.	.	.	.	.	.	4.r	.	.	16C^LL	.	16e^LL	.	2g]	.	2ee]	.
.	.	.	.	.	.	.	.	.	.	.	.	.	.	.	.	.	.	.	.	.	.	.	.	16E	.	16g	.	.	.	.	.
.	.	.	.	.	.	.	.	.	.	.	.	.	.	.	.	.	.	.	.	.	.	.	.	16D	.	16f	.	.	.	.	.
.	.	.	.	.	.	.	.	.	.	.	.	.	.	.	.	.	.	.	.	.	.	.	.	16EJJ	.	16gJJ	.	.	.	.	.
.	.	.	.	4A	]]	.	.	.	.	.	.	.	.	.	.	.	.	.	.	.	.	4r	.	16C^LL	.	16e^LL	.	.	.	.	.
.	.	.	.	.	.	.	.	.	.	.	.	.	.	.	.	.	.	.	.	.	.	.	.	16E	.	16c	.	.	.	.	.
.	.	.	.	.	.	.	.	.	.	.	.	.	.	.	.	.	.	.	.	.	8G	.	mf	16D	.	16d	.	.	.	.	.
.	.	.	.	.	.	.	.	.	.	.	.	.	.	.	.	.	.	.	.	.	.	.	.	16CJJ	]]	16eJJ	]]	.	.	.	.
=	=	=	=	=	=	=	=	=	=	=	=	=	=	=	=	=	=	=	=	=	=	=	=	=	=	=	=	=	=	=	=
2.BB-	mp	2.BB-	mp	1B-	mp	[1d	mp	[1f	mp	1r	.	1r	.	.	1r	.	.	1r	.	.	4BB-	4r	.	2BB-	mf	2f	mf	2r	.	1r	.
.	.	.	.	.	.	.	.	.	.	.	.	.	.	.	.	.	.	.	.	.	4r	8ffL	.	.	.	.	.	.	.	.	.
.	.	.	.	.	.	.	.	.	.	.	.	.	.	.	.	.	.	.	.	.	.	8ggJ	.	.	.	.	.	.	.	.	.
.	.	.	.	.	.	.	.	.	.	.	.	.	.	.	.	.	.	.	.	.	2r	8aaL	.	2r	.	2r	.	8b-L	.	.	.
.	.	.	.	.	.	.	.	.	.	.	.	.	.	.	.	.	.	.	.	.	.	8bb-	.	.	.	.	.	8a	.	.	.
4C	.	4C	.	.	.	.	.	.	.	.	.	.	.	.	.	.	.	.	.	.	.	8ccc	.	.	.	.	.	8g	.	.	.
.	.	.	.	.	.	.	.	.	.	.	.	.	.	.	.	.	.	.	.	.	.	8bb-J	.	.	.	.	.	8aJ	.	.	.
=	=	=	=	=	=	=	=	=	=	=	=	=	=	=	=	=	=	=	=	=	=	=	=	=	=	=	=	=	=	=	=
1D	.	1D	.	1A	.	1d_	.	1f_	.	1r	.	1r	.	.	1r	.	.	1r	.	.	4D: 4A:	4d: 4f: 4a: 4dd: 4ff: 4aa:	.	1r	.	1r	.	4.g	.	2r	.
.	.	.	.	.	.	.	.	.	.	.	.	.	.	.	.	.	.	.	.	.	4r	4r	.	.	.	.	.	.	.	.	.
.	.	.	.	.	.	.	.	.	.	.	.	.	.	.	.	.	.	.	.	.	.	.	.	.	.	.	.	[8f	.	.	.
.	.	.	.	.	.	.	.	.	.	.	.	.	.	.	.	.	.	.	.	.	2r	2r	.	.	.	.	.	4f]	.	8ddL	.
.	.	.	.	.	.	.	.	.	.	.	.	.	.	.	.	.	.	.	.	.	.	.	.	.	.	.	.	.	.	8ff	.
.	.	.	.	.	.	.	.	.	.	.	.	.	.	.	.	.	.	.	.	.	.	.	.	.	.	.	.	4r	.	8gg	.
.	.	.	.	.	.	.	.	.	.	.	.	.	.	.	.	.	.	.	.	.	.	.	.	.	.	.	.	.	.	[8aaJ	.
=	=	=	=	=	=	=	=	=	=	=	=	=	=	=	=	=	=	=	=	=	=	=	=	=	=	=	=	=	=	=	=
2.BB-	.	2.BB-	.	1B-	.	1d_	.	1f_	.	1r	.	1r	.	.	1r	.	.	1r	.	.	1r	1r	.	1r	.	1r	.	2r	.	4aa]	.
.	.	.	.	.	.	.	.	.	.	.	.	.	.	.	.	.	.	.	.	.	.	.	.	.	.	.	.	.	.	2bb-	.
.	.	.	.	.	.	.	.	.	.	.	.	.	.	.	.	.	.	.	.	.	.	.	.	.	.	.	.	8b-L	.	.	.
.	.	.	.	.	.	.	.	.	.	.	.	.	.	.	.	.	.	.	.	.	.	.	.	.	.	.	.	8a	.	.	.
4C	.	4C	.	.	.	.	.	.	.	.	.	.	.	.	.	.	.	.	.	.	.	.	.	.	.	.	.	8g	.	4r	.
.	.	.	.	.	.	.	.	.	.	.	.	.	.	.	.	.	.	.	.	.	.	.	.	.	.	.	.	8aJ	.	.	.
=	=	=	=	=	=	=	=	=	=	=	=	=	=	=	=	=	=	=	=	=	=	=	=	=	=	=	=	=	=	=	=
1D	.	1D	.	1A	.	1d_	.	1f_	.	1r	.	1r	.	.	1r	.	.	1r	.	.	2r	1r	.	1r	.	1r	.	4d	.	1r	.
.	.	.	.	.	.	.	.	.	.	.	.	.	.	.	.	.	.	.	.	.	.	.	.	.	.	.	.	4e	.	.	.
.	.	.	.	.	.	.	.	.	.	.	.	.	.	.	.	.	.	.	.	.	4.r	.	.	.	.	.	.	4f	.	.	.
.	.	.	.	.	.	.	.	.	.	.	.	.	.	.	.	.	.	.	.	.	.	.	.	.	.	.	.	[4a	.	.	.
.	.	.	.	.	.	.	.	.	.	.	.	.	.	.	.	.	.	.	.	.	8d	.	.	.	.	.	.	.	.	.	.
=	=	=	=	=	=	=	=	=	=	=	=	=	=	=	=	=	=	=	=	=	=	=	=	=	=	=	=	=	=	=	=
1GG	.	1GG	.	1B-	.	1d]	.	1f_	.	1r	.	1r	.	.	1r	.	.	1r	.	.	4G	4r	.	1r	.	2r	.	4a]	.	1r	.
.	.	.	.	.	.	.	.	.	.	.	.	.	.	.	.	.	.	.	.	.	4r	8ggL	.	.	.	.	.	2b-	.	.	.
.	.	.	.	.	.	.	.	.	.	.	.	.	.	.	.	.	.	.	.	.	.	8aaJ	.	.	.	.	.	.	.	.	.
.	.	.	.	.	.	.	.	.	.	.	.	.	.	.	.	.	.	.	.	.	2r	8bb-L	.	.	.	8dL	.	.	.	.	.
.	.	.	.	.	.	.	.	.	.	.	.	.	.	.	.	.	.	.	.	.	.	8ccc	.	.	.	8e	.	.	.	.	.
.	.	.	.	.	.	.	.	.	.	.	.	.	.	.	.	.	.	.	.	.	.	8ddd	.	.	.	8f	.	4r	.	.	.
.	.	.	.	.	.	.	.	.	.	.	.	.	.	.	.	.	.	.	.	.	.	8cccJ	.	.	.	8aJ	.	.	.	.	.
=	=	=	=	=	=	=	=	=	=	=	=	=	=	=	=	=	=	=	=	=	=	=	=	=	=	=	=	=	=	=	=
1AA	.	1AA	.	1G	.	1c	.	1f_	.	1r	.	1r	.	.	1r	.	.	1r	.	.	4AA: 4F: 4c:	4f: 4cc: 4ff: 4aa: 4ccc:	.	1r	.	4.g	.	2r	.	1r	.
.	.	.	.	.	.	.	.	.	.	.	.	.	.	.	.	.	.	.	.	.	4r	2r	.	.	.	.	.	.	.	.	.
.	.	.	.	.	.	.	.	.	.	.	.	.	.	.	.	.	.	.	.	.	.	.	.	.	.	8f	.	.	.	.	.
.	.	.	.	.	.	.	.	.	.	.	.	.	.	.	.	.	.	.	.	.	2r	.	.	.	.	4.cc	.	8fL	.	.	.
.	.	.	.	.	.	.	.	.	.	.	.	.	.	.	.	.	.	.	.	.	.	.	.	.	.	.	.	8g	.	.	.
.	.	.	.	.	.	.	.	.	.	.	.	.	.	.	.	.	.	.	.	.	.	8aaL	.	.	.	.	.	8a	.	.	.
.	.	.	.	.	.	.	.	.	.	.	.	.	.	.	.	.	.	.	.	.	.	8ggJ	.	.	.	8r	.	[8ccJ	.	.	.
=	=	=	=	=	=	=	=	=	=	=	=	=	=	=	=	=	=	=	=	=	=	=	=	=	=	=	=	=	=	=	=
1BB-	.	1BB-	.	1B-	.	1d	.	1f]	.	1r	.	1r	.	.	1r	.	.	1r	.	.	4BB-: 4F: 4B-:	4d: 4f: 4b-: 4dd: 4ff:	.	4r	.	2.r	.	4cc]	.	1r	.
.	.	.	.	.	.	.	.	.	.	.	.	.	.	.	.	.	.	.	.	.	4r	4.r	.	8B-L	.	.	.	2dd	.	.	.
.	.	.	.	.	.	.	.	.	.	.	.	.	.	.	.	.	.	.	.	.	.	.	.	8AJ	.	.	.	.	.	.	.
.	.	.	.	.	.	.	.	.	.	.	.	.	.	.	.	.	.	.	.	.	2r	.	.	8FL	.	.	.	.	.	.	.
.	.	.	.	.	.	.	.	.	.	.	.	.	.	.	.	.	.	.	.	.	.	8ddL	.	8BB-	.	.	.	.	.	.	.
.	.	.	.	.	.	.	.	.	.	.	.	.	.	.	.	.	.	.	.	.	.	8ff	.	8D	.	4r	.	4a	.	.	.
.	.	.	.	.	.	.	.	.	.	.	.	.	.	.	.	.	.	.	.	.	.	8aaJ	.	8FJ	.	.	.	.	.	.	.
=	=	=	=	=	=	=	=	=	=	=	=	=	=	=	=	=	=	=	=	=	=	=	=	=	=	=	=	=	=	=	=
1C	.	1C	.	4G	.	4c	.	4e	.	1r	.	1r	.	.	1r	.	.	1r	.	.	4C: 4G: 4c:	4e: 4g: 4cc: 4ee: 4gg:	.	8EL	.	2r	.	2g	.	4r	.
.	.	.	.	.	.	.	.	.	.	.	.	.	.	.	.	.	.	.	.	.	.	.	.	8DJ	.	.	.	.	.	.	.
.	.	.	.	4c	.	4e	.	4g	.	.	.	.	.	.	.	.	.	.	.	.	4r	4r	.	4C	.	.	.	.	.	8ggL	.
.	.	.	.	.	.	.	.	.	.	.	.	.	.	.	.	.	.	.	.	.	.	.	.	.	.	.	.	.	.	8aaJ	.
.	.	.	.	2e	.	2g	.	4.cc	.	.	.	.	.	.	.	.	.	.	.	.	2r	2r	.	8r	.	8gL	.	8r	.	2bb-	.
.	.	.	.	.	.	.	.	.	.	.	.	.	.	.	.	.	.	.	.	.	.	.	.	8EL	.	8eJ	.	8cL	.	.	.
.	.	.	.	.	.	.	.	.	.	.	.	.	.	.	.	.	.	.	.	.	.	.	.	8G	.	4c	.	8e	.	.	.
.	.	.	.	.	.	.	.	[8dd	.	.	.	.	.	.	.	.	.	.	.	.	.	.	.	8EJ	.	.	.	8gJ	.	.	.
=	=	=	=	=	=	=	=	=	=	=	=	=	=	=	=	=	=	=	=	=	=	=	=	=	=	=	=	=	=	=	=
*	*	*	*	*	*	*	*	*	*	*	*	*	*	*	*	*	*	*	*	*	*^	*	*	*	*	*	*	*	*	*	*
[1D	<[	[1D	<[	[1e	<[	[1a	<[	1dd_	<[	1r	.	1r	.	.	1r	.	.	1r	.	.	2DD	16r	2r	.	[1D	<[	[1e	<[	[1a	<[	[1aa	<[
.	.	.	.	.	.	.	.	.	.	.	.	.	.	.	.	.	.	.	.	.	.	16AALL	.	.	.	.	.	.	.	.	.	.
.	.	.	.	.	.	.	.	.	.	.	.	.	.	.	.	.	.	.	.	.	.	16D	.	.	.	.	.	.	.	.	.	.
.	.	.	.	.	.	.	.	.	.	.	.	.	.	.	.	.	.	.	.	.	.	16EJJ	.	.	.	.	.	.	.	.	.	.
.	.	.	.	.	.	.	.	.	.	.	.	.	.	.	.	.	.	.	.	.	.	16ALL	.	.	.	.	.	.	.	.	.	.
.	.	.	.	.	.	.	.	.	.	.	.	.	.	.	.	.	.	.	.	.	.	16c	.	.	.	.	.	.	.	.	.	.
.	.	.	.	.	.	.	.	.	.	.	.	.	.	.	.	.	.	.	.	.	.	16d	.	.	.	.	.	.	.	.	.	.
.	.	.	.	.	.	.	.	.	.	.	.	.	.	.	.	.	.	.	.	.	.	16eJJ	.	.	.	.	.	.	.	.	.	.
.	.	.	.	.	.	.	.	.	.	.	.	.	.	.	.	.	.	.	.	.	2r	2r	16aLL	.	.	.	.	.	.	.	.	.
.	.	.	.	.	.	.	.	.	.	.	.	.	.	.	.	.	.	.	.	.	.	.	16cc	.	.	.	.	.	.	.	.	.
.	.	.	.	.	.	.	.	.	.	.	.	.	.	.	.	.	.	.	.	.	.	.	16dd	.	.	.	.	.	.	.	.	.
.	.	.	.	.	.	.	.	.	.	.	.	.	.	.	.	.	.	.	.	.	.	.	16eeJJ	.	.	.	.	.	.	.	.	.
.	.	.	.	.	.	.	.	.	.	.	.	.	.	.	.	.	.	.	.	.	.	.	16aaLL	.	.	.	.	.	.	.	.	.
.	.	.	.	.	.	.	.	.	.	.	.	.	.	.	.	.	.	.	.	.	.	.	16ccc	.	.	.	.	.	.	.	.	.
.	.	.	.	.	.	.	.	.	.	.	.	.	.	.	.	.	.	.	.	.	.	.	16ddd	.	.	.	.	.	.	.	.	.
.	.	.	.	.	.	.	.	.	.	.	.	.	.	.	.	.	.	.	.	.	.	.	16eeeJJ	.	.	.	.	.	.	.	.	.
*	*	*	*	*	*	*	*	*	*	*	*	*	*	*	*	*	*	*	*	*	*v	*v	*	*	*	*	*	*	*	*	*	*
=	=	=	=	=	=	=	=	=	=	=	=	=	=	=	=	=	=	=	=	=	=	=	=	=	=	=	=	=	=	=	=
1DZ]	f	1DZ]	f	1eZ]	f	1aZ]	f	1ddZ]	f	1r	.	1r	.	.	1r	.	.	1r	.	.	2DD: 2D: 2A:	2d: 2e: 2a: 2dd: 2ee: 2aa: 2ddd:	f	1DZ]	f	1eZ]	f	1aZ]	f	1aaZ]	f
.	.	.	.	.	.	.	.	.	.	.	.	.	.	.	.	.	.	.	.	.	2rZ	2rZ	.	.	.	.	.	.	.	.	.
=	=	=	=	=	=	=	=	=	=	=	=	=	=	=	=	=	=	=	=	=	=	=	=	=	=	=	=	=	=	=	=
*M1/4	*	*M1/4	*	*M1/4	*	*M1/4	*	*M1/4	*	*M1/4	*	*M1/4	*	*	*M1/4	*	*	*M1/4	*	*	*M1/4	*M1/4	*	*M1/4	*	*M1/4	*	*M1/4	*	*M1/4	*
4r	.	8r	.	4r	.	4r	.	4r	.	4r	.	4r	.	.	4r	.	.	4r	.	.	4r	4r	.	4r	.	4r	.	4r	.	4r	.
.	.	8AA	p	.	.	.	.	.	.	.	.	.	.	.	.	.	.	.	.	.	.	.	.	.	.	.	.	.	.	.	.
=	=	=	=	=	=	=	=	=	=	=	=	=	=	=	=	=	=	=	=	=	=	=	=	=	=	=	=	=	=	=	=
*M4/4	*	*M4/4	*	*M4/4	*	*M4/4	*	*M4/4	*	*M4/4	*	*M4/4	*	*	*M4/4	*	*	*M4/4	*	*	*M4/4	*M4/4	*	*M4/4	*	*M4/4	*	*M4/4	*	*M4/4	*
*	*	*	*	*	*	*	*	*	*	*	*	*	*	*	*	*	*	*	*	*	*^	*	*	*	*	*	*	*	*	*	*
1r	.	2.D	.	1r	.	1r	.	1r	.	1r	.	1r	.	.	1r	.	.	4r	.	.	8r	2D	2r	mp	1r	.	1r	.	1r	.	1r	.
.	.	.	.	.	.	.	.	.	.	.	.	.	.	.	.	.	.	.	.	.	8FL	.	.	.	.	.	.	.	.	.	.	.
.	.	.	.	.	.	.	.	.	.	.	.	.	.	.	.	.	.	8aL	Gdy-	mf	8A	.	.	.	.	.	.	.	.	.	.	.
.	.	.	.	.	.	.	.	.	.	.	.	.	.	.	.	.	.	8gJ	-bym	.	8dJ	.	.	.	.	.	.	.	.	.	.	.
.	.	.	.	.	.	.	.	.	.	.	.	.	.	.	.	.	.	8fL	mó-	.	2r	2r	8fL	.	.	.	.	.	.	.	.	.
.	.	.	.	.	.	.	.	.	.	.	.	.	.	.	.	.	.	8g	-wił	.	.	.	8A	.	.	.	.	.	.	.	.	.
.	.	4C	.	.	.	.	.	.	.	.	.	.	.	.	.	.	.	8a	ję-	.	.	.	8d	.	.	.	.	.	.	.	.	.
.	.	.	.	.	.	.	.	.	.	.	.	.	.	.	.	.	.	8ccJ	-zy-	.	.	.	8fJ	.	.	.	.	.	.	.	.	.
=	=	=	=	=	=	=	=	=	=	=	=	=	=	=	=	=	=	=	=	=	=	=	=	=	=	=	=	=	=	=	=	=
1r	.	1BB-	.	2r	.	2r	.	2r	.	1r	.	1r	.	.	1r	.	.	8cc	-ka-	.	8r	2BB-	8g	.	1r	.	1r	.	1r	.	1r	.
.	.	.	.	.	.	.	.	.	.	.	.	.	.	.	.	.	.	4dd	-mi	.	8FL	.	8r	.	.	.	.	.	.	.	.	.
.	.	.	.	.	.	.	.	.	.	.	.	.	.	.	.	.	.	.	.	.	8B-	.	4r	.	.	.	.	.	.	.	.	.
.	.	.	.	.	.	.	.	.	.	.	.	.	.	.	.	.	.	8r	.	.	8dJ	.	.	.	.	.	.	.	.	.	.	.
.	.	.	.	4r	.	4r	.	4r	.	.	.	.	.	.	.	.	.	8ddL	lu-	.	2r	2r	8gL	.	.	.	.	.	.	.	.	.
.	.	.	.	.	.	.	.	.	.	.	.	.	.	.	.	.	.	8cc	-dzi	.	.	.	8d	.	.	.	.	.	.	.	.	.
.	.	.	.	4r	.	4r	.	4r	.	.	.	.	.	.	.	.	.	8f	i	.	.	.	8f	.	.	.	.	.	.	.	.	.
.	.	.	.	.	.	.	.	.	.	.	.	.	.	.	.	.	.	8gJ	a-	.	.	.	8b-J	.	.	.	.	.	.	.	.	.
=	=	=	=	=	=	=	=	=	=	=	=	=	=	=	=	=	=	=	=	=	=	=	=	=	=	=	=	=	=	=	=	=
1r	.	1F	.	1r	.	1r	.	1r	.	1r	.	1r	.	.	1r	.	.	([2.a	-nio-	.	8r	2F	8a	.	1r	.	1r	.	1r	.	1r	.
.	.	.	.	.	.	.	.	.	.	.	.	.	.	.	.	.	.	.	.	.	8AL	.	8r	.	.	.	.	.	.	.	.	.
.	.	.	.	.	.	.	.	.	.	.	.	.	.	.	.	.	.	.	.	.	8cJ	.	8r	.	.	.	.	.	.	.	.	.
.	.	.	.	.	.	.	.	.	.	.	.	.	.	.	.	.	.	.	.	.	8r	.	8f	.	.	.	.	.	.	.	.	.
.	.	.	.	.	.	.	.	.	.	.	.	.	.	.	.	.	.	.	.	.	2r	2r	8ccL	.	.	.	.	.	.	.	.	.
.	.	.	.	.	.	.	.	.	.	.	.	.	.	.	.	.	.	.	.	.	.	.	8a	.	.	.	.	.	.	.	.	.
.	.	.	.	.	.	.	.	.	.	.	.	.	.	.	.	.	.	8aL]	.	.	.	.	8cc	.	.	.	.	.	.	.	.	.
.	.	.	.	.	.	.	.	.	.	.	.	.	.	.	.	.	.	8gJ)	.	.	.	.	8ffJ	.	.	.	.	.	.	.	.	.
=	=	=	=	=	=	=	=	=	=	=	=	=	=	=	=	=	=	=	=	=	=	=	=	=	=	=	=	=	=	=	=	=
2.r	.	1C	.	2.r	.	2.r	.	2.r	.	1r	.	1r	.	.	1r	.	.	2.g	-łów,	.	8r	2C	8ee	.	1r	.	1r	.	1r	.	1r	.
.	.	.	.	.	.	.	.	.	.	.	.	.	.	.	.	.	.	.	.	.	8GL	.	8r	.	.	.	.	.	.	.	.	.
.	.	.	.	.	.	.	.	.	.	.	.	.	.	.	.	.	.	.	.	.	8cJ	.	8r	.	.	.	.	.	.	.	.	.
.	.	.	.	.	.	.	.	.	.	.	.	.	.	.	.	.	.	.	.	.	8r	.	8e	.	.	.	.	.	.	.	.	.
.	.	.	.	.	.	.	.	.	.	.	.	.	.	.	.	.	.	.	.	.	2r	2r	8eeL	.	.	.	.	.	.	.	.	.
.	.	.	.	.	.	.	.	.	.	.	.	.	.	.	.	.	.	.	.	.	.	.	8cc	.	.	.	.	.	.	.	.	.
8r	.	.	.	8r	.	8r	.	8r	.	.	.	.	.	.	.	.	.	4r	.	.	.	.	8g	.	.	.	.	.	.	.	.	.
!LO:TX:a:t=pizz.	!	!	!	!	!	!	!	!	!	!	!	!	!	!	!	!	!	!	!	!	!	!	!	!	!	!	!	!	!	!	!	!
8AA	mp	.	.	8A	mp	8c	mp	8e	mp	.	.	.	.	.	.	.	.	.	.	.	.	.	8eJ	.	.	.	.	.	.	.	.	.
=	=	=	=	=	=	=	=	=	=	=	=	=	=	=	=	=	=	=	=	=	=	=	=	=	=	=	=	=	=	=	=	=
4D	.	2.D	.	1A	.	[1d	.	[1f	.	1r	.	1r	.	.	4r	.	.	1r	.	.	8r	2D	8d: 8f: 8a: 8dd:	.	1r	.	1r	.	1r	.	1r	.
.	.	.	.	.	.	.	.	.	.	.	.	.	.	.	.	.	.	.	.	.	8AL	.	8r	.	.	.	.	.	.	.	.	.
4r	.	.	.	.	.	.	.	.	.	.	.	.	.	.	8AL	gdy-	mf	.	.	.	8dJ	.	8r	.	.	.	.	.	.	.	.	.
.	.	.	.	.	.	.	.	.	.	.	.	.	.	.	8GJ	-bym	.	.	.	.	8r	.	8f	.	.	.	.	.	.	.	.	.
4r	.	.	.	.	.	.	.	.	.	.	.	.	.	.	8FL	po-	.	.	.	.	2r	2r	8aL	.	.	.	.	.	.	.	.	.
.	.	.	.	.	.	.	.	.	.	.	.	.	.	.	8G	-siadł	.	.	.	.	.	.	8d	.	.	.	.	.	.	.	.	.
4C	.	4C	.	.	.	.	.	.	.	.	.	.	.	.	8A	wszel-	.	.	.	.	.	.	8f	.	.	.	.	.	.	.	.	.
.	.	.	.	.	.	.	.	.	.	.	.	.	.	.	8cJ	-ką	.	.	.	.	.	.	8ccJ	.	.	.	.	.	.	.	.	.
=	=	=	=	=	=	=	=	=	=	=	=	=	=	=	=	=	=	=	=	=	=	=	=	=	=	=	=	=	=	=	=	=
4BB-	.	2.BB-	.	4c	.	2.d]	.	2.f]	.	1r	.	1r	.	.	8c	wie-	.	1r	.	.	8r	2BB-	8d: 8f: 8b-: 8dd:	.	1r	.	1r	.	1r	.	1r	.
.	.	.	.	.	.	.	.	.	.	.	.	.	.	.	4d	-dzę	.	.	.	.	8B-L	.	8r	.	.	.	.	.	.	.	.	.
4r	.	.	.	2B-	.	.	.	.	.	.	.	.	.	.	.	.	.	.	.	.	8dJ	.	8r	.	.	.	.	.	.	.	.	.
.	.	.	.	.	.	.	.	.	.	.	.	.	.	.	8r	.	.	.	.	.	8r	.	8f	.	.	.	.	.	.	.	.	.
4r	.	.	.	.	.	.	.	.	.	.	.	.	.	.	8dL	i	.	.	.	.	2r	2r	8b-L	.	.	.	.	.	.	.	.	.
.	.	.	.	.	.	.	.	.	.	.	.	.	.	.	8c	znał	.	.	.	.	.	.	8dd	.	.	.	.	.	.	.	.	.
4BB-	.	4BB-	.	4d	.	4f	.	4b-	.	.	.	.	.	.	8F	wszys-	.	.	.	.	.	.	8ff	.	.	.	.	.	.	.	.	.
.	.	.	.	.	.	.	.	.	.	.	.	.	.	.	8GJ	-tkie	.	.	.	.	.	.	8ggJ	.	.	.	.	.	.	.	.	.
=	=	=	=	=	=	=	=	=	=	=	=	=	=	=	=	=	=	=	=	=	=	=	=	=	=	=	=	=	=	=	=	=
4F	.	1F	<[	2.c	<	2f	<	4a	<	1r	.	1r	.	.	2.A	ta-	.	1r	.	.	8r	2F	8f:L 8a: 8cc: 8ff: 8aa:	.	1r	.	1r	.	1r	.	1r	.
.	.	.	.	.	.	.	.	.	.	.	.	.	.	.	.	.	.	.	.	.	8r	.	8c	.	.	.	.	.	.	.	.	.
4r	.	.	.	.	.	.	.	4cc	.	.	.	.	.	.	.	.	.	.	.	.	4r	.	8f	.	.	.	.	.	.	.	.	.
.	.	.	.	.	.	.	.	.	.	.	.	.	.	.	.	.	.	.	.	.	.	.	8ccJ	.	.	.	.	.	.	.	.	.
4r	.	.	.	.	.	4a	.	4ff	.	.	.	.	.	.	.	.	.	.	.	.	2r	2r	8ffL	.	.	.	.	.	.	.	.	.
.	.	.	.	.	.	.	.	.	.	.	.	.	.	.	.	.	.	.	.	.	.	.	8cc	.	.	.	.	.	.	.	.	.
4F	.	.	.	4d	[[	4b-	[[	[4gg	[[	.	.	.	.	.	4G	-jem-	.	.	.	.	.	.	8ff	.	.	.	.	.	.	.	.	.
.	.	.	.	.	.	.	.	.	.	.	.	.	.	.	.	.	.	.	.	.	.	.	8aaJ	.	.	.	.	.	.	.	.	.
=	=	=	=	=	=	=	=	=	=	=	=	=	=	=	=	=	=	=	=	=	=	=	=	=	=	=	=	=	=	=	=	=
4C	mf	1C	mf > ]]	4e	mf >	4cc	mf >	4gg]	mf >	1r	.	1r	.	.	8FL	-ni-	.	1r	.	.	1r	2C:	4c: 4e: 4g: 4cc: 4ee: 4gg:	.	1r	.	1r	.	1r	.	1r	.
.	.	.	.	.	.	.	.	.	.	.	.	.	.	.	[8GJ	-ce,	.	.	.	.	.	.	.	.	.	.	.	.	.	.	.	.
8r	.	.	.	4c	.	4g	.	4ee	.	.	.	.	.	.	2G]	.	.	.	.	.	.	.	4r	.	.	.	.	.	.	.	.	.
8GG	.	.	.	.	.	.	.	.	.	.	.	.	.	.	.	.	.	.	.	.	.	.	.	.	.	.	.	.	.	.	.	.
4C	.	.	.	4G	.	4e	.	4cc	.	.	.	.	.	.	.	.	.	.	.	.	.	2r	2r	.	.	.	.	.	.	.	.	.
4r	.	.	.	8B-L	.	8dL	.	8gL	.	.	.	.	.	.	4r	.	.	.	.	.	.	.	.	.	.	.	.	.	.	.	.	.
.	.	.	.	8AJ	]]	8cJ	]]	8aJ	]]	.	.	.	.	.	.	.	.	.	.	.	.	.	.	.	.	.	.	.	.	.	.	.
*	*	*	*	*	*	*	*	*	*	*	*	*	*	*	*	*	*	*	*	*	*v	*v	*	*	*	*	*	*	*	*	*	*
=	=	=	=	=	=	=	=	=	=	=	=	=	=	=	=	=	=	=	=	=	=	=	=	=	=	=	=	=	=	=	=
4GG	mp	1GG	mp	1G	mp	1d	mp	1b-	mp	1r	.	1r	.	.	1r	.	.	4r	.	.	1r	1r	.	1r	.	1r	.	1r	.	4r	.
8r	.	.	.	.	.	.	.	.	.	.	.	.	.	.	.	.	.	8b-L	gdy-	.	.	.	.	.	.	.	.	.	.	8bb-L	mp
8D	.	.	.	.	.	.	.	.	.	.	.	.	.	.	.	.	.	8aJ	-bym	.	.	.	.	.	.	.	.	.	.	8aaJ	.
8G	.	.	.	.	.	.	.	.	.	.	.	.	.	.	.	.	.	8b-L	ca-	.	.	.	.	.	.	.	.	.	.	8bb-L	.
4A	.	.	.	.	.	.	.	.	.	.	.	.	.	.	.	.	.	8cc	-łą	.	.	.	.	.	.	.	.	.	.	8ccc	.
.	.	.	.	.	.	.	.	.	.	.	.	.	.	.	.	.	.	8dd	swą	.	.	.	.	.	.	.	.	.	.	8ddd	.
8G	.	.	.	.	.	.	.	.	.	.	.	.	.	.	.	.	.	8ccJ	ma-	.	.	.	.	.	.	.	.	.	.	8cccJ	.
=	=	=	=	=	=	=	=	=	=	=	=	=	=	=	=	=	=	=	=	=	=	=	=	=	=	=	=	=	=	=	=
4D	.	1D	.	1A	.	[1f	.	1a	.	1r	.	1r	.	.	1r	.	.	(4.dd	-jęt-	.	1r	1r	.	1r	.	2r	.	1r	.	4.ddd	.
8r	.	.	.	.	.	.	.	.	.	.	.	.	.	.	.	.	.	.	.	.	.	.	.	.	.	.	.	.	.	.	.
8AA	.	.	.	.	.	.	.	.	.	.	.	.	.	.	.	.	.	8cc)	.	.	.	.	.	.	.	.	.	.	.	8ccc	.
4D	.	.	.	.	.	.	.	.	.	.	.	.	.	.	.	.	.	2a	-ność	.	.	.	.	.	.	8dL	mp	.	.	4aa	.
.	.	.	.	.	.	.	.	.	.	.	.	.	.	.	.	.	.	.	.	.	.	.	.	.	.	8eJ	.	.	.	.	.
8r	.	.	.	.	.	.	.	.	.	.	.	.	.	.	.	.	.	.	.	.	.	.	.	.	.	16fLL	.	.	.	16aaLL	.
.	.	.	.	.	.	.	.	.	.	.	.	.	.	.	.	.	.	.	.	.	.	.	.	.	.	16g	.	.	.	16gg	.
16dLL	.	.	.	.	.	.	.	.	.	.	.	.	.	.	.	.	.	.	.	.	.	.	.	.	.	16a	.	.	.	16ff	.
16cJJ	.	.	.	.	.	.	.	.	.	.	.	.	.	.	.	.	.	.	.	.	.	.	.	.	.	16b-JJ	.	.	.	16eeJJ	.
=	=	=	=	=	=	=	=	=	=	=	=	=	=	=	=	=	=	=	=	=	=	=	=	=	=	=	=	=	=	=	=
4F	.	1F	.	1c	.	1f]	.	1a	.	1r	.	1r	.	.	1r	.	.	(4f	roz-	.	1r	1r	.	1r	.	4a	.	1r	.	4ff	.
8r	.	.	.	.	.	.	.	.	.	.	.	.	.	.	.	.	.	4g)	.	.	.	.	.	.	.	4b-	.	.	.	4gg	.
8c	.	.	.	.	.	.	.	.	.	.	.	.	.	.	.	.	.	.	.	.	.	.	.	.	.	.	.	.	.	.	.
8AL	.	.	.	.	.	.	.	.	.	.	.	.	.	.	.	.	.	4.a	-dał	.	.	.	.	.	.	4.cc	.	.	.	4.aa	.
8GJ	.	.	.	.	.	.	.	.	.	.	.	.	.	.	.	.	.	.	.	.	.	.	.	.	.	.	.	.	.	.	.
8r	.	.	.	.	.	.	.	.	.	.	.	.	.	.	.	.	.	.	.	.	.	.	.	.	.	.	.	.	.	.	.
8F	.	.	.	.	.	.	.	.	.	.	.	.	.	.	.	.	.	8a	u-	.	.	.	.	.	.	8f	.	.	.	8aa	.
=	=	=	=	=	=	=	=	=	=	=	=	=	=	=	=	=	=	=	=	=	=	=	=	=	=	=	=	=	=	=	=
8C	.	[2C	<	4c	<	4e	<	4g	<	1r	.	1r	.	.	1r	.	.	(8aL	-bo-	.	1r	1r	.	1r	.	8ddL	.	1r	.	8aaL	.
4r	.	.	.	.	.	.	.	.	.	.	.	.	.	.	.	.	.	8gJ)	.	.	.	.	.	.	.	[8ccJ	.	.	.	[8ggJ	.
.	.	.	.	4e	.	4g	.	4cc	.	.	.	.	.	.	.	.	.	2g	-gim,	.	.	.	.	.	.	2cc]	.	.	.	2.gg]	.
16r	.	.	.	.	.	.	.	.	.	.	.	.	.	.	.	.	.	.	.	.	.	.	.	.	.	.	.	.	.	.	.
16G	.	.	.	.	.	.	.	.	.	.	.	.	.	.	.	.	.	.	.	.	.	.	.	.	.	.	.	.	.	.	.
8cL	.	2C]	[ mf > ]]	8gL	[ mf >	8ccL	[ mf >	8eeL	[ mf >	.	.	.	.	.	.	.	.	.	.	.	.	.	.	.	.	.	.	.	.	.	.
8B-J	.	.	.	8c	.	8ee	.	8gg	.	.	.	.	.	.	.	.	.	.	.	.	.	.	.	.	.	.	.	.	.	.	.
4r	.	.	.	8G	.	8cc	.	8ee	.	.	.	.	.	.	.	.	.	4r	.	.	.	.	.	.	.	4r	.	.	.	.	.
.	.	.	.	8EJ	]]	8gJ	]]	8ccJ	]]	.	.	.	.	.	.	.	.	.	.	.	.	.	.	.	.	.	.	.	.	.	.
=	=	=	=	=	=	=	=	=	=	=	=	=	=	=	=	=	=	=	=	=	=	=	=	=	=	=	=	=	=	=	=
8r	.	1GG	.	1G	mp	1d	mp	1b-	mp	1r	.	1r	.	.	4r	.	.	1r	.	.	1r	1r	.	1r	.	1r	.	4r	.	4r	.
8GL	.	.	.	.	.	.	.	.	.	.	.	.	.	.	.	.	.	.	.	.	.	.	.	.	.	.	.	.	.	.	.
8D	.	.	.	.	.	.	.	.	.	.	.	.	.	.	8B-L	gdy-	.	.	.	.	.	.	.	.	.	.	.	8b-L	mp	4r	.
8GGJ	.	.	.	.	.	.	.	.	.	.	.	.	.	.	8AJ	-bym	.	.	.	.	.	.	.	.	.	.	.	8aJ	.	.	.
8r	.	.	.	.	.	.	.	.	.	.	.	.	.	.	8B-L	wia-	.	.	.	.	.	.	.	.	.	.	.	8b-L	.	2r	.
8GGL	.	.	.	.	.	.	.	.	.	.	.	.	.	.	8c	-rę	.	.	.	.	.	.	.	.	.	.	.	8cc	.	.	.
8F	.	.	.	.	.	.	.	.	.	.	.	.	.	.	8d	miał	.	.	.	.	.	.	.	.	.	.	.	8dd	.	.	.
8EJ	.	.	.	.	.	.	.	.	.	.	.	.	.	.	8eJ	tak	.	.	.	.	.	.	.	.	.	.	.	8eeJ	.	.	.
=	=	=	=	=	=	=	=	=	=	=	=	=	=	=	=	=	=	=	=	=	=	=	=	=	=	=	=	=	=	=	=
4D	.	1D	.	[1A	.	[1f	.	2.dd	.	1r	.	1r	.	.	4f	wiel-	.	1r	.	.	1r	1r	.	8r	.	1r	.	4ff	.	1r	.
.	.	.	.	.	.	.	.	.	.	.	.	.	.	.	.	.	.	.	.	.	.	.	.	8DL	mp	.	.	.	.	.	.
8.r	.	.	.	.	.	.	.	.	.	.	.	.	.	.	4d	-ką,	.	.	.	.	.	.	.	8A	.	.	.	4dd	.	.	.
.	.	.	.	.	.	.	.	.	.	.	.	.	.	.	.	.	.	.	.	.	.	.	.	8FJ	.	.	.	.	.	.	.
16A	.	.	.	.	.	.	.	.	.	.	.	.	.	.	.	.	.	.	.	.	.	.	.	.	.	.	.	.	.	.	.
8eL	.	.	.	.	.	.	.	.	.	.	.	.	.	.	4r	.	.	.	.	.	.	.	.	8DL	.	.	.	4a	.	.	.
8dJ	.	.	.	.	.	.	.	.	.	.	.	.	.	.	.	.	.	.	.	.	.	.	.	8F	.	.	.	.	.	.	.
8r	.	.	.	.	.	.	.	8ccL	.	.	.	.	.	.	8cL	iż-	.	.	.	.	.	.	.	8D	.	.	.	4g	.	.	.
16DLL	.	.	.	.	.	.	.	8ddJ	.	.	.	.	.	.	8dJ	-bym	.	.	.	.	.	.	.	8AAJ	.	.	.	.	.	.	.
16EJJ	.	.	.	.	.	.	.	.	.	.	.	.	.	.	.	.	.	.	.	.	.	.	.	.	.	.	.	.	.	.	.
=	=	=	=	=	=	=	=	=	=	=	=	=	=	=	=	=	=	=	=	=	=	=	=	=	=	=	=	=	=	=	=
4F	.	1F	.	2A]	.	1f]	.	2cc	.	1r	.	1r	.	.	2c	gó-	.	1r	.	.	1r	1r	.	8FFL	.	1r	.	4.f	.	1r	.
.	.	.	.	.	.	.	.	.	.	.	.	.	.	.	.	.	.	.	.	.	.	.	.	8CJ	.	.	.	.	.	.	.
8CL	.	.	.	.	.	.	.	.	.	.	.	.	.	.	.	.	.	.	.	.	.	.	.	4F	.	.	.	.	.	.	.
8FFJ	.	.	.	.	.	.	.	.	.	.	.	.	.	.	.	.	.	.	.	.	.	.	.	.	.	.	.	16gLL	.	.	.
.	.	.	.	.	.	.	.	.	.	.	.	.	.	.	.	.	.	.	.	.	.	.	.	.	.	.	.	16aJJ	.	.	.
8r	.	.	.	4G	.	.	.	4b-	.	.	.	.	.	.	4B-	-ry	.	.	.	.	.	.	.	8r	.	.	.	4g	.	.	.
8AAL	.	.	.	.	.	.	.	.	.	.	.	.	.	.	.	.	.	.	.	.	.	.	.	8CL	.	.	.	.	.	.	.
8C	.	.	.	4F	.	.	.	4a	.	.	.	.	.	.	4A	prze-	.	.	.	.	.	.	.	8AA	.	.	.	4f	.	.	.
8FJ	.	.	.	.	.	.	.	.	.	.	.	.	.	.	.	.	.	.	.	.	.	.	.	8FFJ	.	.	.	.	.	.	.
=	=	=	=	=	=	=	=	=	=	=	=	=	=	=	=	=	=	=	=	=	=	=	=	=	=	=	=	=	=	=	=
4C	.	1C	.	8AL	.	8cL	.	8fL	.	1r	.	1r	.	.	(8FL	-no-	.	2.r	.	.	1r	1r	.	2.C	.	2r	.	8fL	.	2r	.
.	.	.	.	8GJ	.	8dJ	.	8gJ	.	.	.	.	.	.	8GJ)	.	.	.	.	.	.	.	.	.	.	.	.	[8gJ	.	.	.
4r	.	.	.	2c	.	2e	.	2g	.	.	.	.	.	.	2G	-sił,	.	.	.	.	.	.	.	.	.	.	.	2g]	.	.	.
2r	.	.	.	.	.	.	.	.	.	.	.	.	.	.	.	.	.	.	.	.	.	.	.	.	.	4r	.	.	.	4r	.
.	.	.	.	4G	.	8dL	.	8fL	.	.	.	.	.	.	4r	.	.	8fL	lecz-	.	.	.	.	4r	.	4r	.	4r	.	4r	.
.	.	.	.	.	.	8cJ	.	8eJ	.	.	.	.	.	.	.	.	.	8eJ	-mi-	.	.	.	.	.	.	.	.	.	.	.	.
=	=	=	=	=	=	=	=	=	=	=	=	=	=	=	=	=	=	=	=	=	=	=	=	=	=	=	=	=	=	=	=
!LO:TX:a:t=arco	!	!	!	!	!	!	!	!	!	!	!	!	!	!	!	!	!	!	!	!	!	!	!	!	!	!	!	!	!	!	!
8BB-'~L	<	8BB-'~L	<	2F	<	4c	<	2d	<	1r	.	1r	.	.	1r	.	.	2d	-ło-	.	1r	1r	.	1r	.	1r	.	1r	.	1r	.
8BB-'~	.	8BB-'~	.	.	.	.	.	.	.	.	.	.	.	.	.	.	.	.	.	.	.	.	.	.	.	.	.	.	.	.	.
8BB-'~	.	8BB-'~	.	.	.	4B-	.	.	.	.	.	.	.	.	.	.	.	.	.	.	.	.	.	.	.	.	.	.	.	.	.
8BB-'~J	.	8BB-'~J	.	.	.	.	.	.	.	.	.	.	.	.	.	.	.	.	.	.	.	.	.	.	.	.	.	.	.	.	.
8BB-'~L	.	8BB-'~L	.	4G	.	4c	.	4e	.	.	.	.	.	.	.	.	.	4e	-ści	.	.	.	.	.	.	.	.	.	.	.	.
8BB-'~	.	8BB-'~	.	.	.	.	.	.	.	.	.	.	.	.	.	.	.	.	.	.	.	.	.	.	.	.	.	.	.	.	.
8BB-'~	.	8BB-'~	.	4A	.	4d	.	4f	.	.	.	.	.	.	.	.	.	4f	bym	.	.	.	.	.	.	.	.	.	.	.	.
8BB-'~J	.	8BB-'~J	.	.	.	.	.	.	.	.	.	.	.	.	.	.	.	.	.	.	.	.	.	.	.	.	.	.	.	.	.
=	=	=	=	=	=	=	=	=	=	=	=	=	=	=	=	=	=	=	=	=	=	=	=	=	=	=	=	=	=	=	=
8C'~L	.	8C'~L	.	2G	.	4d	.	2e	.	1r	.	1r	.	.	1r	.	.	2e	nie	.	1r	1r	.	1r	.	1r	.	1r	.	1r	.
8C'~	.	8C'~	.	.	.	.	.	.	.	.	.	.	.	.	.	.	.	.	.	.	.	.	.	.	.	.	.	.	.	.	.
8C'~	.	8C'~	.	.	.	4c	.	.	.	.	.	.	.	.	.	.	.	.	.	.	.	.	.	.	.	.	.	.	.	.	.
8C'~J	.	8C'~J	.	.	.	.	.	.	.	.	.	.	.	.	.	.	.	.	.	.	.	.	.	.	.	.	.	.	.	.	.
8C'~L	.	8C'~L	.	4A	.	4d	.	2g	.	.	.	.	.	.	.	.	.	2g	miał,	.	.	.	.	.	.	.	.	.	.	.	.
8C'~	.	8C'~	.	.	.	.	.	.	.	.	.	.	.	.	.	.	.	.	.	.	.	.	.	.	.	.	.	.	.	.	.
8C'~	.	8C'~	.	4B-	.	4e	.	.	.	.	.	.	.	.	.	.	.	.	.	.	.	.	.	.	.	.	.	.	.	.	.
8C'~J	.	8C'~J	.	.	.	.	.	.	.	.	.	.	.	.	.	.	.	.	.	.	.	.	.	.	.	.	.	.	.	.	.
=	=	=	=	=	=	=	=	=	=	=	=	=	=	=	=	=	=	=	=	=	=	=	=	=	=	=	=	=	=	=	=
8D'~L	.	8D'~L	.	2A	.	4e	.	2f	.	1r	.	1r	.	.	1r	.	.	2f	nic	.	1r	1r	.	1r	.	2r	.	1r	.	2r	.
8D'~	.	8D'~	.	.	.	.	.	.	.	.	.	.	.	.	.	.	.	.	.	.	.	.	.	.	.	.	.	.	.	.	.
8D'~	.	8D'~	.	.	.	4d	.	.	.	.	.	.	.	.	.	.	.	.	.	.	.	.	.	.	.	.	.	.	.	.	.
8D'~J	.	8D'~J	.	.	.	.	.	.	.	.	.	.	.	.	.	.	.	.	.	.	.	.	.	.	.	.	.	.	.	.	.
8D'~L	.	8D'~L	.	4B-	.	4e	.	4g	.	.	.	.	.	.	.	.	.	4g	bym	.	.	.	.	.	.	4r	.	.	.	4r	.
8D'~	.	8D'~	.	.	.	.	.	.	.	.	.	.	.	.	.	.	.	.	.	.	.	.	.	.	.	.	.	.	.	.	.
8D'~	.	8D'~	.	4c	[[	4f	[[	4a	[[	.	.	.	.	.	.	.	.	4a	nie	.	.	.	.	.	.	8r	.	.	.	8r	.
8D'~J	[[	8D'~J	[[	.	.	.	.	.	.	.	.	.	.	.	.	.	.	.	.	.	.	.	.	.	.	8r	.	.	.	8r	.
=	=	=	=	=	=	=	=	=	=	=	=	=	=	=	=	=	=	=	=	=	=	=	=	=	=	=	=	=	=	=	=
2E	f >	2E	f >	8cL	f >	8eL	f >	8gL	f >	1r	.	1r	.	.	2.r	.	.	4g	zy-	.	1r	1r	.	2.r	.	2.r	.	2.r	.	2.r	.
.	.	.	.	8e	.	8g	.	8cc	.	.	.	.	.	.	.	.	.	.	.	.	.	.	.	.	.	.	.	.	.	.	.
.	.	.	.	8g	.	8cc	.	8ee	.	.	.	.	.	.	.	.	.	2g	-skał,	.	.	.	.	.	.	.	.	.	.	.	.
.	.	.	.	[8cJ	.	[8eeJ	.	8ggJ	.	.	.	.	.	.	.	.	.	.	.	.	.	.	.	.	.	.	.	.	.	.	.
4C	.	4C	.	8cL]	.	8eeL]	.	8cccL	.	.	.	.	.	.	.	.	.	.	.	.	.	.	.	.	.	.	.	.	.	.	.
.	.	.	.	8e	.	8cc	.	8gg	.	.	.	.	.	.	.	.	.	.	.	.	.	.	.	.	.	.	.	.	.	.	.
4AA	]]	4AA	]]	8A	.	8e	.	8cc	.	.	.	.	.	.	8FL	lecz	.	8fL	lecz-	.	.	.	.	4r	.	4r	.	8fL	mf	4r	.
.	.	.	.	8GJ	]]	8cJ	]]	8eJ	]]	.	.	.	.	.	8EJ	mi-	.	8eJ	-mi-	.	.	.	.	.	.	.	.	8eJ	.	.	.
=	=	=	=	=	=	=	=	=	=	=	=	=	=	=	=	=	=	=	=	=	=	=	=	=	=	=	=	=	=	=	=
8BB-'~L	mf <	8BB-'~L	mf <	2B-	mf <	2d	mf <	2f	mf <	1r	.	1r	.	.	2F	-ło-	<	2d	-ło-	<	1r	1r	.	1r	.	8r	.	2d	<	8r	.
8BB-'~	.	8BB-'~	.	.	.	.	.	.	.	.	.	.	.	.	.	.	.	.	.	.	.	.	.	.	.	16f'LL	<	.	.	16dd'LL	<
.	.	.	.	.	.	.	.	.	.	.	.	.	.	.	.	.	.	.	.	.	.	.	.	.	.	16e'JJ	.	.	.	16cc'JJ	.
8BB-'~	.	8BB-'~	.	.	.	.	.	.	.	.	.	.	.	.	.	.	.	.	.	.	.	.	.	.	.	16f'	.	.	.	16dd'	.
.	.	.	.	.	.	.	.	.	.	.	.	.	.	.	.	.	.	.	.	.	.	.	.	.	.	16r	.	.	.	16r	.
8BB-'~J	.	8BB-'~J	.	.	.	.	.	.	.	.	.	.	.	.	.	.	.	.	.	.	.	.	.	.	.	16cc'LL	.	.	.	16ee'LL	.
.	.	.	.	.	.	.	.	.	.	.	.	.	.	.	.	.	.	.	.	.	.	.	.	.	.	16b-'JJ	.	.	.	16ff'JJ	.
8BB-'~L	.	8BB-'~L	.	16d'LL	.	8b-'L	.	16ff'LL	.	.	.	.	.	.	4G	-ści	.	4e	-ści	.	.	.	.	.	.	(4cc	.	4e	.	(4ee	.
.	.	.	.	16c'	.	.	.	16ee'	.	.	.	.	.	.	.	.	.	.	.	.	.	.	.	.	.	.	.	.	.	.	.
8BB-'~	.	8BB-'~	.	16B-'	.	8f'	.	16dd'	.	.	.	.	.	.	.	.	.	.	.	.	.	.	.	.	.	.	.	.	.	.	.
.	.	.	.	16A'JJ	.	.	.	16cc'JJ	.	.	.	.	.	.	.	.	.	.	.	.	.	.	.	.	.	.	.	.	.	.	.
8BB-'~	.	8BB-'~	.	16G'LL	.	8d'	.	16b-'LL	.	.	.	.	.	.	4A	bym	.	4f	bym	.	.	.	.	.	.	4b-)	.	4f	.	4dd)	.
.	.	.	.	16F'	.	.	.	16a'	.	.	.	.	.	.	.	.	.	.	.	.	.	.	.	.	.	.	.	.	.	.	.
8BB-'~J	.	8BB-'~J	.	16E'	.	8B-'J	.	16g'	.	.	.	.	.	.	.	.	.	.	.	.	.	.	.	.	.	.	.	.	.	.	.
.	.	.	.	16D'JJ	.	.	.	16f'JJ	.	.	.	.	.	.	.	.	.	.	.	.	.	.	.	.	.	.	.	.	.	.	.
=	=	=	=	=	=	=	=	=	=	=	=	=	=	=	=	=	=	=	=	=	=	=	=	=	=	=	=	=	=	=	=
8C'~L	.	8C'~L	.	2c	.	2e	.	2g	.	1r	.	1r	.	.	2G	nie	.	2e	nie	.	1r	1r	.	1r	.	8r	.	2e	.	8r	.
8C'~	.	8C'~	.	.	.	.	.	.	.	.	.	.	.	.	.	.	.	.	.	.	.	.	.	.	.	16g'LL	.	.	.	16ee'LL	.
.	.	.	.	.	.	.	.	.	.	.	.	.	.	.	.	.	.	.	.	.	.	.	.	.	.	16f'JJ	.	.	.	16dd'JJ	.
8C'~	.	8C'~	.	.	.	.	.	.	.	.	.	.	.	.	.	.	.	.	.	.	.	.	.	.	.	16g'	.	.	.	16ee'	.
.	.	.	.	.	.	.	.	.	.	.	.	.	.	.	.	.	.	.	.	.	.	.	.	.	.	16r	.	.	.	16r	.
8C'~J	.	8C'~J	.	.	.	.	.	.	.	.	.	.	.	.	.	.	.	.	.	.	.	.	.	.	.	16dd'LL	.	.	.	16ff'LL	.
.	.	.	.	.	.	.	.	.	.	.	.	.	.	.	.	.	.	.	.	.	.	.	.	.	.	16cc'JJ	.	.	.	16gg'JJ	.
8C'~L	.	8C'~L	.	16e'LL	.	8cc'L	.	16gg'LL	.	.	.	.	.	.	2B-	miał,	.	2g	miał,	.	.	.	.	.	.	(4dd	.	2g	.	(4ff	.
.	.	.	.	16d'	.	.	.	16ff'	.	.	.	.	.	.	.	.	.	.	.	.	.	.	.	.	.	.	.	.	.	.	.
8C'~	.	8C'~	.	16c'	.	8g'	.	16ee'	.	.	.	.	.	.	.	.	.	.	.	.	.	.	.	.	.	.	.	.	.	.	.
.	.	.	.	16B-'JJ	.	.	.	16dd'JJ	.	.	.	.	.	.	.	.	.	.	.	.	.	.	.	.	.	.	.	.	.	.	.
8C'~	.	8C'~	.	16A'LL	.	8e'	.	16cc'LL	.	.	.	.	.	.	.	.	.	.	.	.	.	.	.	.	.	4cc)	.	.	.	4ee)	.
.	.	.	.	16G'	.	.	.	16b-'	.	.	.	.	.	.	.	.	.	.	.	.	.	.	.	.	.	.	.	.	.	.	.
8C'~J	.	8C'~J	.	16F'	.	8c'J	.	16a'	.	.	.	.	.	.	.	.	.	.	.	.	.	.	.	.	.	.	.	.	.	.	.
.	.	.	.	16E'JJ	.	.	.	16g'JJ	.	.	.	.	.	.	.	.	.	.	.	.	.	.	.	.	.	.	.	.	.	.	.
=	=	=	=	=	=	=	=	=	=	=	=	=	=	=	=	=	=	=	=	=	=	=	=	=	=	=	=	=	=	=	=
8D'~L	.	8D'~L	.	2d	.	2f	.	2a	.	1r	.	1r	.	.	(4A	był-	.	(4f	był	.	1r	1r	.	1r	.	8r	.	4f	.	8r	.
8D'~	.	8D'~	.	.	.	.	.	.	.	.	.	.	.	.	.	.	.	.	.	.	.	.	.	.	.	16a'LL	.	.	.	16ff'LL	.
.	.	.	.	.	.	.	.	.	.	.	.	.	.	.	.	.	.	.	.	.	.	.	.	.	.	16g'JJ	.	.	.	16ee'JJ	.
8D'~	.	8D'~	.	.	.	.	.	.	.	.	.	.	.	.	4B-)	.	.	4g)	.	.	.	.	.	.	.	16a'	.	4g	.	16ff'	.
.	.	.	.	.	.	.	.	.	.	.	.	.	.	.	.	.	.	.	.	.	.	.	.	.	.	16r	.	.	.	16r	.
8D'~J	.	8D'~J	.	.	.	.	.	.	.	.	.	.	.	.	.	.	.	.	.	.	.	.	.	.	.	16dd'LL	.	.	.	16aa'LL	.
.	.	.	.	.	.	.	.	.	.	.	.	.	.	.	.	.	.	.	.	.	.	.	.	.	.	16cc'JJ	.	.	.	16gg'JJ	.
8D'~L	.	8D'~L	.	16f'LL	.	8dd'L	.	16aa'LL	.	.	.	.	.	.	2c	-bym	[[	2a	-bym	[[	.	.	.	.	.	4.dd	[ f	2a	[[	4.ff	[ f
.	.	.	.	16e'	.	.	.	16gg'	.	.	.	.	.	.	.	.	.	.	.	.	.	.	.	.	.	.	.	.	.	.	.
8D'~	.	8D'~	.	16d'	.	8a'	.	16ff'	.	.	.	.	.	.	.	.	.	.	.	.	.	.	.	.	.	.	.	.	.	.	.
.	.	.	.	16c'JJ	.	.	.	16ee'JJ	.	.	.	.	.	.	.	.	.	.	.	.	.	.	.	.	.	.	.	.	.	.	.
8D'~	.	8D'~	.	16B-'LL	.	8f'	.	16dd'LL	.	.	.	.	.	.	.	.	.	.	.	.	.	.	.	.	.	.	.	.	.	.	.
.	.	.	.	16A'	.	.	.	16cc'	.	.	.	.	.	.	.	.	.	.	.	.	.	.	.	.	.	.	.	.	.	.	.
8D'~J	.	8D'~J	.	16G'	.	8d'J	.	16b-'	.	.	.	.	.	.	.	.	.	.	.	.	.	.	.	.	.	8r	.	.	.	8r	.
.	.	.	.	16F'JJ	.	.	.	16a'JJ	.	.	.	.	.	.	.	.	.	.	.	.	.	.	.	.	.	.	.	.	.	.	.
=	=	=	=	=	=	=	=	=	=	=	=	=	=	=	=	=	=	=	=	=	=	=	=	=	=	=	=	=	=	=	=
2.E-X	.	2.E-X	.	1B-	[[	1e-X	[[	1g	[[	1r	.	1r	.	.	4B-	ni-	f	4g	ni-	f	1r	1r	.	4E-X	f	2r	.	4g	f	2r	.
.	.	.	.	.	.	.	.	.	.	.	.	.	.	.	2.e-X	-czym.	.	2.b-	-czym	.	.	.	.	4G	.	.	.	4b-	.	.	.
.	.	.	.	.	.	.	.	.	.	.	.	.	.	.	.	.	.	.	.	.	.	.	.	12BB-L	.	2r	.	12e-XL	.	2r	.
.	.	.	.	.	.	.	.	.	.	.	.	.	.	.	.	.	.	.	.	.	.	.	.	12E-	.	.	.	12g	.	.	.
.	.	.	.	.	.	.	.	.	.	.	.	.	.	.	.	.	.	.	.	.	.	.	.	12GJ	.	.	.	12b-J	.	.	.
16EnLL	.	16EnLL	.	.	.	.	.	.	.	.	.	.	.	.	.	.	.	.	.	.	.	.	.	12B-L	.	.	.	12ee-XL	.	.	.
16D	.	16D	.	.	.	.	.	.	.	.	.	.	.	.	.	.	.	.	.	.	.	.	.	.	.	.	.	.	.	.	.
.	.	.	.	.	.	.	.	.	.	.	.	.	.	.	.	.	.	.	.	.	.	.	.	12G	.	.	.	12b-	.	.	.
16C	.	16C	.	.	.	.	.	.	.	.	.	.	.	.	.	.	.	.	.	.	.	.	.	.	.	.	.	.	.	.	.
.	.	.	.	.	.	.	.	.	.	.	.	.	.	.	.	.	.	.	.	.	.	.	.	12B-J	.	.	.	12ee-J	.	.	.
16BB-JJ	[[	16BB-JJ	[[	.	.	.	.	.	.	.	.	.	.	.	.	.	.	.	.	.	.	.	.	.	.	.	.	.	.	.	.
=	=	=	=	=	=	=	=	=	=	=	=	=	=	=	=	=	=	=	=	=	=	=	=	=	=	=	=	=	=	=	=
1AA	f	1AA	f	4r	.	8e'L	f	8a'L	f	1r	.	1r	.	.	1r	.	.	2r	.	.	1r	1r	.	8AL	.	1r	.	1cc#X	.	1r	.
.	.	.	.	.	.	16AL	.	16c#XL	.	.	.	.	.	.	.	.	.	.	.	.	.	.	.	[8eJ	.	.	.	.	.	.	.
.	.	.	.	.	.	16BnJJ	.	16dJJ	.	.	.	.	.	.	.	.	.	.	.	.	.	.	.	.	.	.	.	.	.	.	.
.	.	.	.	16ALL	f	16c#XLL	.	16eLL	.	.	.	.	.	.	.	.	.	.	.	.	.	.	.	2.e]	.	.	.	.	.	.	.
.	.	.	.	16Bn	.	16d	.	16f	.	.	.	.	.	.	.	.	.	.	.	.	.	.	.	.	.	.	.	.	.	.	.
.	.	.	.	16c#X	.	16e	.	16g	.	.	.	.	.	.	.	.	.	.	.	.	.	.	.	.	.	.	.	.	.	.	.
.	.	.	.	16dJJ	.	16fJJ	.	16aJJ	.	.	.	.	.	.	.	.	.	.	.	.	.	.	.	.	.	.	.	.	.	.	.
.	.	.	.	16c#LL	.	16eLL	.	16gLL	.	.	.	.	.	.	.	.	.	2r	.	.	.	.	.	.	.	.	.	.	.	.	.
.	.	.	.	16d	.	16f	.	16a	.	.	.	.	.	.	.	.	.	.	.	.	.	.	.	.	.	.	.	.	.	.	.
.	.	.	.	16e	.	16g	.	16bn	.	.	.	.	.	.	.	.	.	.	.	.	.	.	.	.	.	.	.	.	.	.	.
.	.	.	.	16AJJ	.	16aJJ	.	16cc#XJJ	.	.	.	.	.	.	.	.	.	.	.	.	.	.	.	.	.	.	.	.	.	.	.
.	.	.	.	16BLL	.	16gLL	.	16ddLL	.	.	.	.	.	.	.	.	.	.	.	.	.	.	.	.	.	.	.	.	.	.	.
.	.	.	.	16A	.	16e	.	16cc#	.	.	.	.	.	.	.	.	.	.	.	.	.	.	.	.	.	.	.	.	.	.	.
.	.	.	.	16B	.	16f	.	16dd	.	.	.	.	.	.	.	.	.	.	.	.	.	.	.	.	.	.	.	.	.	.	.
.	.	.	.	16c#JJ	.	16gJJ	.	16eeJJ	.	.	.	.	.	.	.	.	.	.	.	.	.	.	.	.	.	.	.	.	.	.	.
=	=	=	=	=	=	=	=	=	=	=	=	=	=	=	=	=	=	=	=	=	=	=	=	=	=	=	=	=	=	=	=
*	*	*	*	*	*	*	*	*	*	*^	*	*^	*	*	*	*	*	*	*	*	*	*	*	*	*	*	*	*	*	*	*
1r	.	1r	.	1r	.	1r	.	1r	.	4r	4r	.	4r	4r	.	.	1r	.	.	1r	.	.	1r	1r	.	1r	.	1r	.	1r	.	1r	.
.	.	.	.	.	.	.	.	.	.	8dL	8DL	f f	8ffL	8aL	Mi-	f f	.	.	.	.	.	.	.	.	.	.	.	.	.	.	.	.	.
.	.	.	.	.	.	.	.	.	.	8dJ	8DJ	.	8ffJ	8aJ	-łość	.	.	.	.	.	.	.	.	.	.	.	.	.	.	.	.	.	.
.	.	.	.	.	.	.	.	.	.	4.d	4.A	.	4.ff	4.a	jest	.	.	.	.	.	.	.	.	.	.	.	.	.	.	.	.	.	.
.	.	.	.	.	.	.	.	.	.	8c	8A	.	8ee	8g	cier-	.	.	.	.	.	.	.	.	.	.	.	.	.	.	.	.	.	.
=	=	=	=	=	=	=	=	=	=	=	=	=	=	=	=	=	=	=	=	=	=	=	=	=	=	=	=	=	=	=	=	=	=
1r	.	1r	.	1r	.	1r	.	1r	.	8c	8B-	.	8ee	8g	-pli-	.	1r	.	.	1r	.	.	1r	1r	.	1r	.	1r	.	1r	.	1r	.
.	.	.	.	.	.	.	.	.	.	4d	4B-	.	4ff	4f	-wa,	.	.	.	.	.	.	.	.	.	.	.	.	.	.	.	.	.	.
.	.	.	.	.	.	.	.	.	.	8r	8r	.	8r	8r	.	.	.	.	.	.	.	.	.	.	.	.	.	.	.	.	.	.	.
.	.	.	.	.	.	.	.	.	.	2r	2r	.	2r	2r	.	.	.	.	.	.	.	.	.	.	.	.	.	.	.	.	.	.	.
=	=	=	=	=	=	=	=	=	=	=	=	=	=	=	=	=	=	=	=	=	=	=	=	=	=	=	=	=	=	=	=	=	=
1r	.	1r	.	1r	.	1r	.	1r	.	4r	4r	.	4r	4r	.	.	1r	.	.	1r	.	.	1r	1r	.	1r	.	1r	.	1r	.	1r	.
.	.	.	.	.	.	.	.	.	.	8cL	8AL	.	8ffL	8fL	mi-	.	.	.	.	.	.	.	.	.	.	.	.	.	.	.	.	.	.
.	.	.	.	.	.	.	.	.	.	8cJ	8AJ	.	8ffJ	8fJ	-łość	.	.	.	.	.	.	.	.	.	.	.	.	.	.	.	.	.	.
.	.	.	.	.	.	.	.	.	.	4.c	4.F	.	4.ff	4.a	jest	.	.	.	.	.	.	.	.	.	.	.	.	.	.	.	.	.	.
.	.	.	.	.	.	.	.	.	.	8c	8F	.	8ff	8a	łas-	.	.	.	.	.	.	.	.	.	.	.	.	.	.	.	.	.	.
=	=	=	=	=	=	=	=	=	=	=	=	=	=	=	=	=	=	=	=	=	=	=	=	=	=	=	=	=	=	=	=	=	=
2r	.	2r	.	2r	.	2r	.	2r	.	8f	8c	.	8ff	8cc	-ka-	.	1r	.	.	1r	.	.	1r	1r	.	1r	.	1r	.	1r	.	1r	.
.	.	.	.	.	.	.	.	.	.	4e	4c	.	4gg	4cc	-wa.	.	.	.	.	.	.	.	.	.	.	.	.	.	.	.	.	.	.
.	.	.	.	.	.	.	.	.	.	8r	8r	.	8r	8r	.	.	.	.	.	.	.	.	.	.	.	.	.	.	.	.	.	.	.
8CL	.	8CL	.	16GLL	.	16cLL	.	16eLL	.	2r	2r	.	2r	2r	.	.	.	.	.	.	.	.	.	.	.	.	.	.	.	.	.	.	.
.	.	.	.	16A	.	16d	.	16f	.	.	.	.	.	.	.	.	.	.	.	.	.	.	.	.	.	.	.	.	.	.	.	.	.
8G	.	8G	.	16B-	.	16e	.	16g	.	.	.	.	.	.	.	.	.	.	.	.	.	.	.	.	.	.	.	.	.	.	.	.	.
.	.	.	.	16AJJ	.	16cJJ	.	16fJJ	.	.	.	.	.	.	.	.	.	.	.	.	.	.	.	.	.	.	.	.	.	.	.	.	.
8F	.	8F	.	16B-LL	.	16dLL	.	16gLL	.	.	.	.	.	.	.	.	.	.	.	.	.	.	.	.	.	.	.	.	.	.	.	.	.
.	.	.	.	16c	.	16e	.	16a	.	.	.	.	.	.	.	.	.	.	.	.	.	.	.	.	.	.	.	.	.	.	.	.	.
8EJ	.	8EJ	.	16d	.	16f	.	16b-	.	.	.	.	.	.	.	.	.	.	.	.	.	.	.	.	.	.	.	.	.	.	.	.	.
.	.	.	.	16eJJ	.	16gJJ	.	16ccJJ	.	.	.	.	.	.	.	.	.	.	.	.	.	.	.	.	.	.	.	.	.	.	.	.	.
=	=	=	=	=	=	=	=	=	=	=	=	=	=	=	=	=	=	=	=	=	=	=	=	=	=	=	=	=	=	=	=	=	=
8D'~L	.	8D'~L	.	16A'LL	.	16f'LL	.	16dd'LL	.	4r	4r	.	4r	4r	.	.	1r	.	.	1r	.	.	1r	1r	.	1r	.	1r	.	1r	.	1r	.
.	.	.	.	16A'	.	16f'	.	16dd'	.	.	.	.	.	.	.	.	.	.	.	.	.	.	.	.	.	.	.	.	.	.	.	.	.
8D'~	.	8D'~	.	16F'	.	16d'	.	16a'	.	.	.	.	.	.	.	.	.	.	.	.	.	.	.	.	.	.	.	.	.	.	.	.	.
.	.	.	.	16A'JJ	.	16f'JJ	.	16dd'JJ	.	.	.	.	.	.	.	.	.	.	.	.	.	.	.	.	.	.	.	.	.	.	.	.	.
8D'~	.	8D'~	.	16F'LL	.	16d'LL	.	16a'LL	.	8dL	8DL	.	8ffL	8aL	Nie	.	.	.	.	.	.	.	.	.	.	.	.	.	.	.	.	.	.
.	.	.	.	16F'	.	16d'	.	16a'	.	.	.	.	.	.	.	.	.	.	.	.	.	.	.	.	.	.	.	.	.	.	.	.	.
8D'~J	.	8D'~J	.	16D'	.	16A'	.	16f'	.	8dJ	8DJ	.	8ffJ	8aJ	zaz-	.	.	.	.	.	.	.	.	.	.	.	.	.	.	.	.	.	.
.	.	.	.	16F'JJ	.	16d'JJ	.	16a'JJ	.	.	.	.	.	.	.	.	.	.	.	.	.	.	.	.	.	.	.	.	.	.	.	.	.
8D'~L	.	8D'~L	.	16F'LL	.	16A'LL	.	16f'LL	.	8d	8A	.	8ff	8a	-dro-	.	.	.	.	.	.	.	.	.	.	.	.	.	.	.	.	.	.
.	.	.	.	16F'	.	16A'	.	16f'	.	.	.	.	.	.	.	.	.	.	.	.	.	.	.	.	.	.	.	.	.	.	.	.	.
8D'~	.	8D'~	.	16F'	.	16A'	.	16d'	.	4d	4A	.	4ff	4a	-ści,	.	.	.	.	.	.	.	.	.	.	.	.	.	.	.	.	.	.
.	.	.	.	16F'JJ	.	16A'JJ	.	16f'JJ	.	.	.	.	.	.	.	.	.	.	.	.	.	.	.	.	.	.	.	.	.	.	.	.	.
8D'~	.	8D'~	.	16F'LL	.	16A'LL	.	16A'LL	.	.	.	.	.	.	.	.	.	.	.	.	.	.	.	.	.	.	.	.	.	.	.	.	.
.	.	.	.	16F'	.	16A'	.	16d'	.	.	.	.	.	.	.	.	.	.	.	.	.	.	.	.	.	.	.	.	.	.	.	.	.
8C'~J	.	8C'~J	.	16A'	.	16d'	.	16f'	.	8c	8A	.	8ee	8g	nie	.	.	.	.	.	.	.	.	.	.	.	.	.	.	.	.	.	.
.	.	.	.	16d'JJ	.	16f'JJ	.	16a'JJ	.	.	.	.	.	.	.	.	.	.	.	.	.	.	.	.	.	.	.	.	.	.	.	.	.
=	=	=	=	=	=	=	=	=	=	=	=	=	=	=	=	=	=	=	=	=	=	=	=	=	=	=	=	=	=	=	=	=	=
8BB-'~L	.	8BB-'~L	.	16A'LL	.	16f'LL	.	16dd'LL	.	8d	8B-	.	8ff	8f	szu-	.	1r	.	.	1r	.	.	1r	1r	.	1r	.	1r	.	1r	.	1r	.
.	.	.	.	16A'	.	16f'	.	16dd'	.	.	.	.	.	.	.	.	.	.	.	.	.	.	.	.	.	.	.	.	.	.	.	.	.
8BB-'~	.	8BB-'~	.	16F'	.	16d'	.	16a'	.	4d	4B-	.	4ff	4f	-ka	.	.	.	.	.	.	.	.	.	.	.	.	.	.	.	.	.	.
.	.	.	.	16A'JJ	.	16f'JJ	.	16dd'JJ	.	.	.	.	.	.	.	.	.	.	.	.	.	.	.	.	.	.	.	.	.	.	.	.	.
8BB-'~	.	8BB-'~	.	16F'LL	.	16d'LL	.	16a'LL	.	.	.	.	.	.	.	.	.	.	.	.	.	.	.	.	.	.	.	.	.	.	.	.	.
.	.	.	.	16F'	.	16d'	.	16a'	.	.	.	.	.	.	.	.	.	.	.	.	.	.	.	.	.	.	.	.	.	.	.	.	.
8BB-'~J	.	8BB-'~J	.	16D'	.	16A'	.	16f'	.	8c	8B-	.	8ee	8f	po-	.	.	.	.	.	.	.	.	.	.	.	.	.	.	.	.	.	.
.	.	.	.	16F'JJ	.	16d'JJ	.	16a'JJ	.	.	.	.	.	.	.	.	.	.	.	.	.	.	.	.	.	.	.	.	.	.	.	.	.
8BB-'~L	.	8BB-'~L	.	16F'LL	.	16A'LL	.	16f'LL	.	4B-	4F	.	4dd	4f	-kla-	.	.	.	.	.	.	.	.	.	.	.	.	.	.	.	.	.	.
.	.	.	.	16F'	.	16A'	.	16f'	.	.	.	.	.	.	.	.	.	.	.	.	.	.	.	.	.	.	.	.	.	.	.	.	.
8BB-'~	.	8BB-'~	.	16F'	.	16A'	.	16d'	.	.	.	.	.	.	.	.	.	.	.	.	.	.	.	.	.	.	.	.	.	.	.	.	.
.	.	.	.	16F'JJ	.	16A'JJ	.	16f'JJ	.	.	.	.	.	.	.	.	.	.	.	.	.	.	.	.	.	.	.	.	.	.	.	.	.
8BB-'~	.	8BB-'~	.	16F'LL	.	16A'LL	.	16A'LL	.	4B-	4F	.	4cc	4f	-sku,	.	.	.	.	.	.	.	.	.	.	.	.	.	.	.	.	.	.
.	.	.	.	16F'	.	16A'	.	16d'	.	.	.	.	.	.	.	.	.	.	.	.	.	.	.	.	.	.	.	.	.	.	.	.	.
8BB-'~J	.	8BB-'~J	.	16A'	.	16d'	.	16f'	.	.	.	.	.	.	.	.	.	.	.	.	.	.	.	.	.	.	.	.	.	.	.	.	.
.	.	.	.	16d'JJ	.	16f'JJ	.	16a'JJ	.	.	.	.	.	.	.	.	.	.	.	.	.	.	.	.	.	.	.	.	.	.	.	.	.
=	=	=	=	=	=	=	=	=	=	=	=	=	=	=	=	=	=	=	=	=	=	=	=	=	=	=	=	=	=	=	=	=	=
8F'~L	.	8F'~L	.	16c'LL	.	16a'LL	.	16ff'LL	.	4r	4r	.	4r	4r	.	.	1r	.	.	1r	.	.	1r	1r	.	1r	.	1r	.	1r	.	1r	.
.	.	.	.	16c'	.	16a'	.	16ff'	.	.	.	.	.	.	.	.	.	.	.	.	.	.	.	.	.	.	.	.	.	.	.	.	.
8F'~	.	8F'~	.	16A'	.	16f'	.	16cc'	.	.	.	.	.	.	.	.	.	.	.	.	.	.	.	.	.	.	.	.	.	.	.	.	.
.	.	.	.	16c'JJ	.	16a'JJ	.	16ff'JJ	.	.	.	.	.	.	.	.	.	.	.	.	.	.	.	.	.	.	.	.	.	.	.	.	.
8F'~	.	8F'~	.	16A'LL	.	16f'LL	.	16cc'LL	.	8cL	8AL	.	8ffL	8fL	nie	.	.	.	.	.	.	.	.	.	.	.	.	.	.	.	.	.	.
.	.	.	.	16A'	.	16f'	.	16cc'	.	.	.	.	.	.	.	.	.	.	.	.	.	.	.	.	.	.	.	.	.	.	.	.	.
8F'~J	.	8F'~J	.	16F'	.	16c'	.	16a'	.	8cJ	8AJ	.	8ffJ	8fJ	u-	.	.	.	.	.	.	.	.	.	.	.	.	.	.	.	.	.	.
.	.	.	.	16A'JJ	.	16f'JJ	.	16cc'JJ	.	.	.	.	.	.	.	.	.	.	.	.	.	.	.	.	.	.	.	.	.	.	.	.	.
8F'~L	.	8F'~L	.	16F'LL	.	16c'LL	.	16a'LL	.	4c	4F	.	4ff	4a	-no	.	.	.	.	.	.	.	.	.	.	.	.	.	.	.	.	.	.
.	.	.	.	16F'	.	16c'	.	16a'	.	.	.	.	.	.	.	.	.	.	.	.	.	.	.	.	.	.	.	.	.	.	.	.	.
8F'~	.	8F'~	.	16F'	.	16A'	.	16f'	.	.	.	.	.	.	.	.	.	.	.	.	.	.	.	.	.	.	.	.	.	.	.	.	.
.	.	.	.	16F'JJ	.	16c'JJ	.	16a'JJ	.	.	.	.	.	.	.	.	.	.	.	.	.	.	.	.	.	.	.	.	.	.	.	.	.
8F'~	.	8F'~	.	16F'LL	.	16A'LL	.	16c'LL	.	8cL	8FL	.	8ffL	8aL	si	.	.	.	.	.	.	.	.	.	.	.	.	.	.	.	.	.	.
.	.	.	.	16A'	.	16c'	.	16f'	.	.	.	.	.	.	.	.	.	.	.	.	.	.	.	.	.	.	.	.	.	.	.	.	.
8F'~J	.	8F'~J	.	16c'	.	16f'	.	16a'	.	8cJ	8FJ	.	8ffJ	8aJ	się	.	.	.	.	.	.	.	.	.	.	.	.	.	.	.	.	.	.
.	.	.	.	16f'JJ	.	16a'JJ	.	16cc'JJ	.	.	.	.	.	.	.	.	.	.	.	.	.	.	.	.	.	.	.	.	.	.	.	.	.
=	=	=	=	=	=	=	=	=	=	=	=	=	=	=	=	=	=	=	=	=	=	=	=	=	=	=	=	=	=	=	=	=	=
8C'~L	.	8C'~L	.	16d'LL	.	16cc'LL	.	16gg'LL	.	8f	8c	.	8ff	8a	py-	.	1r	.	.	1r	.	.	1r	1r	.	1r	.	1r	.	1r	.	1r	.
.	.	.	.	16d'	.	16cc'	.	16gg'	.	.	.	.	.	.	.	.	.	.	.	.	.	.	.	.	.	.	.	.	.	.	.	.	.
8C'~	.	8C'~	.	16c'	.	16g'	.	16ee'	.	4e	4c	.	4gg	4g	-chą.	.	.	.	.	.	.	.	.	.	.	.	.	.	.	.	.	.	.
.	.	.	.	16e'JJ	.	16cc'JJ	.	16gg'JJ	.	.	.	.	.	.	.	.	.	.	.	.	.	.	.	.	.	.	.	.	.	.	.	.	.
8C'~	.	8C'~	.	16c'LL	.	16g'LL	.	16ee'LL	.	.	.	.	.	.	.	.	.	.	.	.	.	.	.	.	.	.	.	.	.	.	.	.	.
.	.	.	.	16G'	.	16e'	.	16cc'	.	.	.	.	.	.	.	.	.	.	.	.	.	.	.	.	.	.	.	.	.	.	.	.	.
8C'~J	.	8C'~J	.	16E'	.	16c'	.	16g'	.	8r	8r	.	8r	8r	.	.	.	.	.	.	.	.	.	.	.	.	.	.	.	.	.	.	.
.	.	.	.	16G'JJ	.	16e'JJ	.	16cc'JJ	.	.	.	.	.	.	.	.	.	.	.	.	.	.	.	.	.	.	.	.	.	.	.	.	.
8C'~L	.	8C'~L	.	16c'LL	.	16g'LL	.	16ee'LL	.	2r	2r	.	2r	2r	.	.	.	.	.	.	.	.	.	.	.	.	.	.	.	.	.	.	.
.	.	.	.	16G'	.	16e'	.	16cc'	.	.	.	.	.	.	.	.	.	.	.	.	.	.	.	.	.	.	.	.	.	.	.	.	.
8C'~	.	8C'~	.	16E'	.	16c'	.	16g'	.	.	.	.	.	.	.	.	.	.	.	.	.	.	.	.	.	.	.	.	.	.	.	.	.
.	.	.	.	16C'JJ	.	16G'JJ	.	16e'JJ	.	.	.	.	.	.	.	.	.	.	.	.	.	.	.	.	.	.	.	.	.	.	.	.	.
8C'~	.	8C'~	.	8E^L	.	8c^L	.	8g^L	.	.	.	.	.	.	.	.	.	.	.	.	.	.	.	.	.	.	.	.	.	.	.	.	.
8C'~J	.	8C'~J	.	8e^J	.	8cc^J	.	8gg^J	.	.	.	.	.	.	.	.	.	.	.	.	.	.	.	.	.	.	.	.	.	.	.	.	.
=	=	=	=	=	=	=	=	=	=	=	=	=	=	=	=	=	=	=	=	=	=	=	=	=	=	=	=	=	=	=	=	=	=
1c	p	1c	p	1e-X	p	1cc	p	[1gg	p	4r	4r	.	4r	4r	.	.	1r	.	.	1r	.	.	2C:	4G: 4c: 4e-X: 4g: 4cc: 4ee-X:	mf mf	1r	.	1r	.	8r	.	1r	.
.	.	.	.	.	.	.	.	.	.	.	.	.	.	.	.	.	.	.	.	.	.	.	.	.	.	.	.	.	.	8e-XL	mf	.	.
.	.	.	.	.	.	.	.	.	.	8e-XL	8cL	mf mf	8ggL	8gL	Nie	mf mf	.	.	.	.	.	.	.	4r	.	.	.	.	.	8g	.	.	.
.	.	.	.	.	.	.	.	.	.	8e-J	8cJ	.	8ggJ	8gJ	do-	.	.	.	.	.	.	.	.	.	.	.	.	.	.	8ccJ	.	.	.
.	.	.	.	.	.	.	.	.	.	8e-L	8cL	.	8ggL	8gL	-pusz-	.	.	.	.	.	.	.	2r	2r	.	.	.	.	.	4ee-X	.	.	.
.	.	.	.	.	.	.	.	.	.	8e-	8c	.	8gg	8g	-cza	.	.	.	.	.	.	.	.	.	.	.	.	.	.	.	.	.	.
.	.	.	.	.	.	.	.	.	.	8e-	8c	.	8gg	8g	się	.	.	.	.	.	.	.	.	.	.	.	.	.	.	8ddL	.	.	.
.	.	.	.	.	.	.	.	.	.	8e-J	8cJ	.	8ffJ	8aJ	bez-	.	.	.	.	.	.	.	.	.	.	.	.	.	.	8ccJ	.	.	.
=	=	=	=	=	=	=	=	=	=	=	=	=	=	=	=	=	=	=	=	=	=	=	=	=	=	=	=	=	=	=	=	=	=
1Bn	.	1Bn	.	[1d	.	1a	.	1gg]	.	8d	8Bn	.	8gg	8a	-wsty-	.	1r	.	.	1r	.	.	2BBn:	4G: 4d: 4g: 4a: 4dd:	.	1r	.	1r	.	8dd	.	1r	.
.	.	.	.	.	.	.	.	.	.	4d	4B	.	4dd	4a	-du	.	.	.	.	.	.	.	.	.	.	.	.	.	.	4g	.	.	.
.	.	.	.	.	.	.	.	.	.	.	.	.	.	.	.	.	.	.	.	.	.	.	.	4r	.	.	.	.	.	.	.	.	.
.	.	.	.	.	.	.	.	.	.	8r	8r	.	8r	8r	.	.	.	.	.	.	.	.	.	.	.	.	.	.	.	8a	.	.	.
.	.	.	.	.	.	.	.	.	.	2r	2r	.	2r	2r	.	.	.	.	.	.	.	.	2r	2r	.	.	.	.	.	4bn	.	.	.
.	.	.	.	.	.	.	.	.	.	.	.	.	.	.	.	.	.	.	.	.	.	.	.	.	.	.	.	.	.	16bLL	.	.	.
.	.	.	.	.	.	.	.	.	.	.	.	.	.	.	.	.	.	.	.	.	.	.	.	.	.	.	.	.	.	16a	.	.	.
.	.	.	.	.	.	.	.	.	.	.	.	.	.	.	.	.	.	.	.	.	.	.	.	.	.	.	.	.	.	16g	.	.	.
.	.	.	.	.	.	.	.	.	.	.	.	.	.	.	.	.	.	.	.	.	.	.	.	.	.	.	.	.	.	[16fJJ	.	.	.
=	=	=	=	=	=	=	=	=	=	=	=	=	=	=	=	=	=	=	=	=	=	=	=	=	=	=	=	=	=	=	=	=	=
1B-	.	1B-	.	1d]	.	1b-	.	[1ff	.	4r	4r	.	4r	4r	.	.	1r	.	.	1r	.	.	2BB-:	4B-: 4d: 4f: 4b-: 4cc: 4dd:	.	1r	.	1r	.	2f]	.	8r	.
.	.	.	.	.	.	.	.	.	.	.	.	.	.	.	.	.	.	.	.	.	.	.	.	.	.	.	.	.	.	.	.	8dd	mf
.	.	.	.	.	.	.	.	.	.	8dL	8B-L	.	8ffL	8b-L	i	.	.	.	.	.	.	.	.	4r	.	.	.	.	.	.	.	16bb-LL	.
.	.	.	.	.	.	.	.	.	.	.	.	.	.	.	.	.	.	.	.	.	.	.	.	.	.	.	.	.	.	.	.	16aa	.
.	.	.	.	.	.	.	.	.	.	8dJ	8B-J	.	8ffJ	8b-J	nie	.	.	.	.	.	.	.	.	.	.	.	.	.	.	.	.	16gg	.
.	.	.	.	.	.	.	.	.	.	.	.	.	.	.	.	.	.	.	.	.	.	.	.	.	.	.	.	.	.	.	.	16ffJJ	.
.	.	.	.	.	.	.	.	.	.	4.d	4.B-	.	4.ff	4.f	szu-	.	.	.	.	.	.	.	2r	2r	.	.	.	.	.	2r	.	8ggL	.
.	.	.	.	.	.	.	.	.	.	.	.	.	.	.	.	.	.	.	.	.	.	.	.	.	.	.	.	.	.	.	.	8ff	.
.	.	.	.	.	.	.	.	.	.	.	.	.	.	.	.	.	.	.	.	.	.	.	.	.	.	.	.	.	.	.	.	8cc	.
.	.	.	.	.	.	.	.	.	.	8d	8B-	.	8ee	8g	-ka	.	.	.	.	.	.	.	.	.	.	.	.	.	.	.	.	[8ggJ	.
=	=	=	=	=	=	=	=	=	=	=	=	=	=	=	=	=	=	=	=	=	=	=	=	=	=	=	=	=	=	=	=	=	=
1A	.	1A	.	[1c	.	1g	.	1ff]	.	8c	8A	.	8ff	8g	swe-	.	1r	.	.	1r	.	.	2AA:	4c: 4f: 4g: 4a: 4cc: 4ff:	.	1r	.	1r	.	1r	.	8gg]	.
.	.	.	.	.	.	.	.	.	.	4c	4A	.	4cc	4g	-go,	.	.	.	.	.	.	.	.	.	.	.	.	.	.	.	.	4ff	.
.	.	.	.	.	.	.	.	.	.	.	.	.	.	.	.	.	.	.	.	.	.	.	.	4r	.	.	.	.	.	.	.	.	.
.	.	.	.	.	.	.	.	.	.	8r	8r	.	8r	8r	.	.	.	.	.	.	.	.	.	.	.	.	.	.	.	.	.	4cc	.
.	.	.	.	.	.	.	.	.	.	2r	2r	.	2r	2r	.	.	.	.	.	.	.	.	2r	2r	.	.	.	.	.	.	.	.	.
.	.	.	.	.	.	.	.	.	.	.	.	.	.	.	.	.	.	.	.	.	.	.	.	.	.	.	.	.	.	.	.	8r	.
.	.	.	.	.	.	.	.	.	.	.	.	.	.	.	.	.	.	.	.	.	.	.	.	.	.	.	.	.	.	.	.	16ccLL	.
.	.	.	.	.	.	.	.	.	.	.	.	.	.	.	.	.	.	.	.	.	.	.	.	.	.	.	.	.	.	.	.	16b-	.
.	.	.	.	.	.	.	.	.	.	.	.	.	.	.	.	.	.	.	.	.	.	.	.	.	.	.	.	.	.	.	.	16cc	.
.	.	.	.	.	.	.	.	.	.	.	.	.	.	.	.	.	.	.	.	.	.	.	.	.	.	.	.	.	.	.	.	16ddJJ	.
=	=	=	=	=	=	=	=	=	=	=	=	=	=	=	=	=	=	=	=	=	=	=	=	=	=	=	=	=	=	=	=	=	=
1A-X	.	1A-X	.	1c]	.	1a-X	.	[1ee-X	.	4r	4r	.	4r	4r	.	.	1r	.	.	1r	.	.	2AA-X:	4c: 4e-X: 4g: 4cc: 4ee-X:	.	1r	.	8r	.	1r	.	16ee-XLL	.
.	.	.	.	.	.	.	.	.	.	.	.	.	.	.	.	.	.	.	.	.	.	.	.	.	.	.	.	.	.	.	.	16ffJJ	.
.	.	.	.	.	.	.	.	.	.	.	.	.	.	.	.	.	.	.	.	.	.	.	.	.	.	.	.	8cL	mf	.	.	4.ee-	.
.	.	.	.	.	.	.	.	.	.	8cL	8A-XL	.	8ee-XL	8a-XL	nie	.	.	.	.	.	.	.	.	4r	.	.	.	8e-	.	.	.	.	.
.	.	.	.	.	.	.	.	.	.	8cJ	8A-J	.	8ee-J	8a-J	u-	.	.	.	.	.	.	.	.	.	.	.	.	8a-XJ	.	.	.	.	.
.	.	.	.	.	.	.	.	.	.	4c	4A-	.	4ee-	4a-	-no-	.	.	.	.	.	.	.	2r	2r	.	.	.	4cc	.	.	.	2r	.
.	.	.	.	.	.	.	.	.	.	8cL	8A-L	.	8ee-L	8e-XL	-si	.	.	.	.	.	.	.	.	.	.	.	.	12a-L	.	.	.	.	.
.	.	.	.	.	.	.	.	.	.	.	.	.	.	.	.	.	.	.	.	.	.	.	.	.	.	.	.	12g	.	.	.	.	.
.	.	.	.	.	.	.	.	.	.	8cJ	8A-J	.	8ddJ	8fJ	się	.	.	.	.	.	.	.	.	.	.	.	.	.	.	.	.	.	.
.	.	.	.	.	.	.	.	.	.	.	.	.	.	.	.	.	.	.	.	.	.	.	.	.	.	.	.	12fJ	.	.	.	.	.
=	=	=	=	=	=	=	=	=	=	=	=	=	=	=	=	=	=	=	=	=	=	=	=	=	=	=	=	=	=	=	=	=	=
1G	.	1G	.	1B-	.	1f	.	1ee-]	.	8B-	8G	.	8ee-X	8f	gnie-	.	1r	.	.	1r	.	.	2GG:	4B-: 4e-X: 4f: 4g: 4b-: 4ee-X:	.	1r	.	8e-	.	1r	.	1r	.
.	.	.	.	.	.	.	.	.	.	4e-X	4G	.	4b-	4f	-wem,	.	.	.	.	.	.	.	.	.	.	.	.	4b-	.	.	.	.	.
.	.	.	.	.	.	.	.	.	.	.	.	.	.	.	.	.	.	.	.	.	.	.	.	4r	.	.	.	.	.	.	.	.	.
.	.	.	.	.	.	.	.	.	.	8r	8r	.	8r	8r	.	.	.	.	.	.	.	.	.	.	.	.	.	8cc	.	.	.	.	.
.	.	.	.	.	.	.	.	.	.	2r	2r	.	2r	2r	.	.	.	.	.	.	.	.	2r	2r	.	.	.	[4b-	.	.	.	.	.
.	.	.	.	.	.	.	.	.	.	.	.	.	.	.	.	.	.	.	.	.	.	.	.	.	.	.	.	16b-LL]	.	.	.	.	.
.	.	.	.	.	.	.	.	.	.	.	.	.	.	.	.	.	.	.	.	.	.	.	.	.	.	.	.	16a-X	.	.	.	.	.
.	.	.	.	.	.	.	.	.	.	.	.	.	.	.	.	.	.	.	.	.	.	.	.	.	.	.	.	16g	.	.	.	.	.
.	.	.	.	.	.	.	.	.	.	.	.	.	.	.	.	.	.	.	.	.	.	.	.	.	.	.	.	16fJJ	.	.	.	.	.
=	=	=	=	=	=	=	=	=	=	=	=	=	=	=	=	=	=	=	=	=	=	=	=	=	=	=	=	=	=	=	=	=	=
1G-X	mf <	1G-X	mf <	1d-X	mf <	2b-	mf <	2dd-X	mf <	4r	4r	.	4r	4r	.	.	1r	.	.	1r	.	.	2GG-X:	4B-: 4d-X: 4f: 4b-: 4dd-X:	.	8r	.	2d-X	.	1r	.	2.r	.
.	.	.	.	.	.	.	.	.	.	.	.	.	.	.	.	.	.	.	.	.	.	.	.	.	.	8GG-XL	mf	.	.	.	.	.	.
.	.	.	.	.	.	.	.	.	.	8d-XL	8G-XL	.	8dd-XL	8b-L	nie	.	.	.	.	.	.	.	.	4r	.	8BB-	.	.	.	.	.	.	.
.	.	.	.	.	.	.	.	.	.	8d-J	8G-J	.	8dd-J	8b-J	pa-	.	.	.	.	.	.	.	.	.	.	8D-XJ	.	.	.	.	.	.	.
.	.	.	.	.	.	2g-X	.	2b-	.	4.d-	4.G-	.	4.dd-	4.b-	-mię-	.	.	.	.	.	.	.	2r	2r	.	16G-XLL	.	4r	.	.	.	.	.
.	.	.	.	.	.	.	.	.	.	.	.	.	.	.	.	.	.	.	.	.	.	.	.	.	.	16B-	.	.	.	.	.	.	.
.	.	.	.	.	.	.	.	.	.	.	.	.	.	.	.	.	.	.	.	.	.	.	.	.	.	16G-	.	.	.	.	.	.	.
.	.	.	.	.	.	.	.	.	.	.	.	.	.	.	.	.	.	.	.	.	.	.	.	.	.	16D-JJ	.	.	.	.	.	.	.
.	.	.	.	.	.	.	.	.	.	.	.	.	.	.	.	.	.	.	.	.	.	.	.	.	.	8BB-'L	.	4r	.	.	.	8dd-XL	.
.	.	.	.	.	.	.	.	.	.	8d-	8G-	.	8ee-X	8b-	-ta	.	.	.	.	.	.	.	.	.	.	8GG-'J	.	.	.	.	.	8ee-XJ	.
=	=	=	=	=	=	=	=	=	=	=	=	=	=	=	=	=	=	=	=	=	=	=	=	=	=	=	=	=	=	=	=	=	=
2C	.	2C	.	16ELL	.	16ALL	.	16cLL	.	2c	2G	.	2ff	2b-	złe-	.	1r	.	.	1r	.	.	2r	4r	.	4.C	.	1r	.	1r	.	2ff	.
.	.	.	.	16F	.	16B-	.	16d	.	.	.	.	.	.	.	.	.	.	.	.	.	.	.	.	.	.	.	.	.	.	.	.	.
.	.	.	.	16G	.	16c	.	16e	.	.	.	.	.	.	.	.	.	.	.	.	.	.	.	.	.	.	.	.	.	.	.	.	.
.	.	.	.	16AJJ	.	16dJJ	.	16fJJ	.	.	.	.	.	.	.	.	.	.	.	.	.	.	.	.	.	.	.	.	.	.	.	.	.
.	.	.	.	16GLL	.	16cLL	.	16eLL	.	.	.	.	.	.	.	.	.	.	.	.	.	.	.	4cc	<	.	.	.	.	.	.	.	.
.	.	.	.	16F	.	16B-	.	16d	.	.	.	.	.	.	.	.	.	.	.	.	.	.	.	.	.	.	.	.	.	.	.	.	.
.	.	.	.	16G	.	16c	.	16e	.	.	.	.	.	.	.	.	.	.	.	.	.	.	.	.	.	16GLL	.	.	.	.	.	.	.
.	.	.	.	16AJJ	.	16dJJ	.	16fJJ	.	.	.	.	.	.	.	.	.	.	.	.	.	.	.	.	.	16B-JJ	.	.	.	.	.	.	.
8GL	.	8GL	.	16B-LL	.	16eLL	.	16gLL	.	2c	2C	.	2ee	2b-	-go.	.	.	.	.	.	.	.	4C	4r	.	2c	.	.	.	.	.	2ee	.
.	.	.	.	16c	.	16f	.	16a	.	.	.	.	.	.	.	.	.	.	.	.	.	.	.	.	.	.	.	.	.	.	.	.	.
8F	.	8F	.	16d	.	16g	.	16b-	.	.	.	.	.	.	.	.	.	.	.	.	.	.	.	.	.	.	.	.	.	.	.	.	.
.	.	.	.	16eJJ	.	16aJJ	.	16ccJJ	.	.	.	.	.	.	.	.	.	.	.	.	.	.	.	.	.	.	.	.	.	.	.	.	.
8E	.	8E	.	16fLL	.	16b-LL	.	16ddLL	.	.	.	.	.	.	.	.	.	.	.	.	.	.	4r	4ccc	.	.	.	.	.	.	.	.	.
.	.	.	.	16g	.	16cc	.	16ee	.	.	.	.	.	.	.	.	.	.	.	.	.	.	.	.	.	.	.	.	.	.	.	.	.
8CJ	[[	8CJ	[[	16f	.	16a	.	16ff	.	.	.	.	.	.	.	.	.	.	.	.	.	.	.	.	.	.	.	.	.	.	.	.	.
.	.	.	.	16eJJ	[[	16b-JJ	[[	16ggJJ	[[	.	.	.	.	.	.	.	.	.	.	.	.	.	.	.	.	.	.	.	.	.	.	.	.
=	=	=	=	=	=	=	=	=	=	=	=	=	=	=	=	=	=	=	=	=	=	=	=	=	=	=	=	=	=	=	=	=	=
8D'~L	f	8D'~L	f	16d'LL	f	16a'LL	f	16ff'LL	f	4r	4r	.	4r	4r	.	.	1r	.	.	1r	.	.	2D: 2A:	2d: 2f: 2a: 2dd: 2ff: 2aa:	[ f	1r	.	1r	.	8ff	.	1r	.
.	.	.	.	16d'	.	16a'	.	16ff'	.	.	.	.	.	.	.	.	.	.	.	.	.	.	.	.	.	.	.	.	.	.	.	.	.
8D'~	.	8D'~	.	16A'	.	16f'	.	16dd'	.	.	.	.	.	.	.	.	.	.	.	.	.	.	.	.	.	.	.	.	.	4ee	.	.	.
.	.	.	.	16d'JJ	.	16a'JJ	.	16ff'JJ	.	.	.	.	.	.	.	.	.	.	.	.	.	.	.	.	.	.	.	.	.	.	.	.	.
8D'~	.	8D'~	.	16A'LL	.	16f'LL	.	16dd'LL	.	8dL	8DL	f f	8ffL	8aL	Współ-	f f	.	.	.	.	.	.	.	.	.	.	.	.	.	.	.	.	.
.	.	.	.	16A'	.	16f'	.	16dd'	.	.	.	.	.	.	.	.	.	.	.	.	.	.	.	.	.	.	.	.	.	.	.	.	.
8D'~J	.	8D'~J	.	16F'	.	16d'	.	16a'	.	8dJ	8DJ	.	8ffJ	8aJ	-we-	.	.	.	.	.	.	.	.	.	.	.	.	.	.	4dd	.	.	.
.	.	.	.	16A'JJ	.	16f'JJ	.	16dd'JJ	.	.	.	.	.	.	.	.	.	.	.	.	.	.	.	.	.	.	.	.	.	.	.	.	.
8D'~L	.	8D'~L	.	16F'LL	.	16d'LL	.	16a'LL	.	4d	4A	.	4ff	4a	-se-	.	.	.	.	.	.	.	2r	2r	.	.	.	.	.	.	.	.	.
.	.	.	.	16F'	.	16d'	.	16a'	.	.	.	.	.	.	.	.	.	.	.	.	.	.	.	.	.	.	.	.	.	.	.	.	.
8D'~	.	8D'~	.	16D'	.	16A'	.	16f'	.	.	.	.	.	.	.	.	.	.	.	.	.	.	.	.	.	.	.	.	.	4cc	.	.	.
.	.	.	.	16F'JJ	.	16d'JJ	.	16a'JJ	.	.	.	.	.	.	.	.	.	.	.	.	.	.	.	.	.	.	.	.	.	.	.	.	.
8D'~	.	8D'~	.	16F'LL	.	16A'LL	.	16d'LL	.	8dL	8AL	.	8ffL	8aL	-li	.	.	.	.	.	.	.	.	.	.	.	.	.	.	.	.	.	.
.	.	.	.	16A'	.	16d'	.	16f'	.	.	.	.	.	.	.	.	.	.	.	.	.	.	.	.	.	.	.	.	.	.	.	.	.
8C'~J	.	8C'~J	.	16d'	.	16f'	.	16a'	.	8cJ	8AJ	.	8eeJ	8gJ	się	.	.	.	.	.	.	.	.	.	.	.	.	.	.	8a	.	.	.
.	.	.	.	16f'JJ	.	16a'JJ	.	16dd'JJ	.	.	.	.	.	.	.	.	.	.	.	.	.	.	.	.	.	.	.	.	.	.	.	.	.
=	=	=	=	=	=	=	=	=	=	=	=	=	=	=	=	=	=	=	=	=	=	=	=	=	=	=	=	=	=	=	=	=	=
8BB-'~L	.	8BB-'~L	.	16d'LL	.	16a'LL	.	16ff'LL	.	8c	8B-	.	8ee	8g	z praw-	.	1r	.	.	1r	.	.	2BB-: 2F: 2B-:	2d: 2f: 2b-: 2cc: 2dd: 2ff:	.	1r	.	1r	.	8cc	.	1r	.
.	.	.	.	16d'	.	16a'	.	16ff'	.	.	.	.	.	.	.	.	.	.	.	.	.	.	.	.	.	.	.	.	.	.	.	.	.
8BB-'~	.	8BB-'~	.	16A'	.	16f'	.	16dd'	.	4d	4B-	.	4ff	4f	-dą,	.	.	.	.	.	.	.	.	.	.	.	.	.	.	2dd	.	.	.
.	.	.	.	16d'JJ	.	16a'JJ	.	16ff'JJ	.	.	.	.	.	.	.	.	.	.	.	.	.	.	.	.	.	.	.	.	.	.	.	.	.
8BB-'~	.	8BB-'~	.	16A'LL	.	16f'LL	.	16dd'LL	.	.	.	.	.	.	.	.	.	.	.	.	.	.	.	.	.	.	.	.	.	.	.	.	.
.	.	.	.	16A'	.	16f'	.	16dd'	.	.	.	.	.	.	.	.	.	.	.	.	.	.	.	.	.	.	.	.	.	.	.	.	.
8BB-'~J	.	8BB-'~J	.	16F'	.	16d'	.	16a'	.	8r	8r	.	8r	8r	.	.	.	.	.	.	.	.	.	.	.	.	.	.	.	.	.	.	.
.	.	.	.	16A'JJ	.	16f'JJ	.	16dd'JJ	.	.	.	.	.	.	.	.	.	.	.	.	.	.	.	.	.	.	.	.	.	.	.	.	.
8BB-'~L	.	8BB-'~L	.	16F'LL	.	16d'LL	.	16a'LL	.	2r	2r	.	2r	2r	.	.	.	.	.	.	.	.	2r	8r	.	.	.	.	.	.	.	.	.
.	.	.	.	16F'	.	16d'	.	16a'	.	.	.	.	.	.	.	.	.	.	.	.	.	.	.	.	.	.	.	.	.	.	.	.	.
8BB-'~	.	8BB-'~	.	16D'	.	16A'	.	16f'	.	.	.	.	.	.	.	.	.	.	.	.	.	.	.	8ddL 8bb-	.	.	.	.	.	8r	.	.	.
.	.	.	.	16F'JJ	.	16d'JJ	.	16a'JJ	.	.	.	.	.	.	.	.	.	.	.	.	.	.	.	.	.	.	.	.	.	.	.	.	.
8BB-'~	.	8BB-'~	.	16F'LL	.	16A'LL	.	16d'LL	.	.	.	.	.	.	.	.	.	.	.	.	.	.	.	8cc 8aa	.	.	.	.	.	16b-LL	.	.	.
.	.	.	.	16A'	.	16d'	.	16f'	.	.	.	.	.	.	.	.	.	.	.	.	.	.	.	.	.	.	.	.	.	16cc	.	.	.
8BB-'~J	.	8BB-'~J	.	16d'	.	16f'	.	16a'	.	.	.	.	.	.	.	.	.	.	.	.	.	.	.	8b-J 8gg	.	.	.	.	.	16dd	.	.	.
.	.	.	.	16f'JJ	.	16a'JJ	.	16dd'JJ	.	.	.	.	.	.	.	.	.	.	.	.	.	.	.	.	.	.	.	.	.	16eeJJ	.	.	.
=	=	=	=	=	=	=	=	=	=	=	=	=	=	=	=	=	=	=	=	=	=	=	=	=	=	=	=	=	=	=	=	=	=
8F'~L	.	8F'~L	.	16f'LL	.	16cc'LL	.	16aa'LL	.	4r	4r	.	4r	4r	.	.	1r	.	.	1r	.	.	2F: 2c:	2f: 2a: 2cc: 2ff: 2aa:	.	1r	.	1r	.	8ff	.	1r	.
.	.	.	.	16f'	.	16cc'	.	16aa'	.	.	.	.	.	.	.	.	.	.	.	.	.	.	.	.	.	.	.	.	.	.	.	.	.
8F'~	.	8F'~	.	16c'	.	16a'	.	16ff'	.	.	.	.	.	.	.	.	.	.	.	.	.	.	.	.	.	.	.	.	.	4ee	.	.	.
.	.	.	.	16f'JJ	.	16cc'JJ	.	16aa'JJ	.	.	.	.	.	.	.	.	.	.	.	.	.	.	.	.	.	.	.	.	.	.	.	.	.
8F'~	.	8F'~	.	16c'LL	.	16a'LL	.	16ff'LL	.	4c	4A	.	4ff	4f	nie	.	.	.	.	.	.	.	.	.	.	.	.	.	.	.	.	.	.
.	.	.	.	16c'	.	16a'	.	16ff'	.	.	.	.	.	.	.	.	.	.	.	.	.	.	.	.	.	.	.	.	.	.	.	.	.
8F'~J	.	8F'~J	.	16A'	.	16f'	.	16cc'	.	.	.	.	.	.	.	.	.	.	.	.	.	.	.	.	.	.	.	.	.	4dd	.	.	.
.	.	.	.	16c'JJ	.	16a'JJ	.	16ff'JJ	.	.	.	.	.	.	.	.	.	.	.	.	.	.	.	.	.	.	.	.	.	.	.	.	.
8F'~L	.	8F'~L	.	16A'LL	.	16f'LL	.	16cc'LL	.	4c	4F	.	4ff	4a	cie-	.	.	.	.	.	.	.	2r	8r	.	.	.	.	.	.	.	.	.
.	.	.	.	16A'	.	16f'	.	16cc'	.	.	.	.	.	.	.	.	.	.	.	.	.	.	.	.	.	.	.	.	.	.	.	.	.
8F'~	.	8F'~	.	16F'	.	16c'	.	16a'	.	.	.	.	.	.	.	.	.	.	.	.	.	.	.	8ccL 8aa	.	.	.	.	.	4cc	.	.	.
.	.	.	.	16A'JJ	.	16f'JJ	.	16cc'JJ	.	.	.	.	.	.	.	.	.	.	.	.	.	.	.	.	.	.	.	.	.	.	.	.	.
8F'~	.	8F'~	.	16F'LL	.	16c'LL	.	16a'LL	.	8fL	8FL	.	8ffL	8aL	-szy	.	.	.	.	.	.	.	.	8b- 8gg	.	.	.	.	.	.	.	.	.
.	.	.	.	16A'	.	16f'	.	16cc'	.	.	.	.	.	.	.	.	.	.	.	.	.	.	.	.	.	.	.	.	.	.	.	.	.
8F'~J	.	8F'~J	.	16d'	.	16a'	.	16ff'	.	8fJ	8FJ	.	8ffJ	8aJ	się	.	.	.	.	.	.	.	.	8aJ 8ff	.	.	.	.	.	8dd	.	.	.
.	.	.	.	16f'JJ	.	16cc'JJ	.	16aa'JJ	.	.	.	.	.	.	.	.	.	.	.	.	.	.	.	.	.	.	.	.	.	.	.	.	.
=	=	=	=	=	=	=	=	=	=	=	=	=	=	=	=	=	=	=	=	=	=	=	=	=	=	=	=	=	=	=	=	=	=
8C'~L	.	8C'~L	.	16d'LL	.	16cc'LL	.	16gg'LL	.	4f	4c	.	4ff	4a	z nie-	.	1r	.	.	1r	.	.	2C: 2G: 2c:	4f: 4g: 4cc: 4gg:	.	1r	.	1r	.	2.cc	.	1r	.
.	.	.	.	16d'	.	16cc'	.	16gg'	.	.	.	.	.	.	.	.	.	.	.	.	.	.	.	.	.	.	.	.	.	.	.	.	.
8C'~	.	8C'~	.	16c'	.	16g'	.	16ee'	.	.	.	.	.	.	.	.	.	.	.	.	.	.	.	.	.	.	.	.	.	.	.	.	.
.	.	.	.	16e'JJ	.	16cc'JJ	.	16gg'JJ	.	.	.	.	.	.	.	.	.	.	.	.	.	.	.	.	.	.	.	.	.	.	.	.	.
8C'~	.	8C'~	.	16c'LL	.	16g'LL	.	16ee'LL	.	4e	4c	.	4gg	4g	-spra-	.	.	.	.	.	.	.	.	16cLL	.	.	.	.	.	.	.	.	.
.	.	.	.	16G'	.	16e'	.	16cc'	.	.	.	.	.	.	.	.	.	.	.	.	.	.	.	16g	.	.	.	.	.	.	.	.	.
8C'~J	.	8C'~J	.	16E'	.	16c'	.	16g'	.	.	.	.	.	.	.	.	.	.	.	.	.	.	.	16e	.	.	.	.	.	.	.	.	.
.	.	.	.	16G'JJ	.	16e'JJ	.	16cc'JJ	.	.	.	.	.	.	.	.	.	.	.	.	.	.	.	16gJJ	.	.	.	.	.	.	.	.	.
8C'~L	.	8C'~L	.	16c'LL	.	16g'LL	.	16ee'LL	.	4d	4c	.	4ff	4a	-wie-	.	.	.	.	.	.	.	2r	16ccLL	.	.	.	.	.	.	.	.	.
.	.	.	.	16G'	.	16e'	.	16cc'	.	.	.	.	.	.	.	.	.	.	.	.	.	.	.	16g	.	.	.	.	.	.	.	.	.
8C'~	.	8C'~	.	16E'	.	16c'	.	16g'	.	.	.	.	.	.	.	.	.	.	.	.	.	.	.	16ee	.	.	.	.	.	.	.	.	.
.	.	.	.	16C'JJ	.	16G'JJ	.	16e'JJ	.	.	.	.	.	.	.	.	.	.	.	.	.	.	.	16ccJJ	.	.	.	.	.	.	.	.	.
8AA'~	.	8AA'~	.	16E'LL	.	16c'LL	.	16g'LL	.	4e	4A	.	4ee	4g	-dli-	.	.	.	.	.	.	.	.	16ggLL	.	.	.	.	.	4r	.	.	.
.	.	.	.	16G'	.	16e'	.	16cc'	.	.	.	.	.	.	.	.	.	.	.	.	.	.	.	16ee	.	.	.	.	.	.	.	.	.
8AA'~J	.	8AA'~J	.	16c'	.	16g'	.	16ee'	.	.	.	.	.	.	.	.	.	.	.	.	.	.	.	16ccc	.	.	.	.	.	.	.	.	.
.	.	.	.	16e'JJ	.	16b-'JJ	.	16gg'JJ	.	.	.	.	.	.	.	.	.	.	.	.	.	.	.	16ggJJ	.	.	.	.	.	.	.	.	.
=	=	=	=	=	=	=	=	=	=	=	=	=	=	=	=	=	=	=	=	=	=	=	=	=	=	=	=	=	=	=	=	=	=
8D'~L	.	8D'~L	.	16d'LL	.	16a'LL	.	16ff'LL	.	8e	8D	.	8ee	8g	-wo-	.	1r	.	.	1r	.	.	2D: 2A:	2d: 2f: 2a: 2dd: 2ff: 2aa:	.	1r	.	8a	.	8ff	.	1r	.
.	.	.	.	16d'	.	16a'	.	16ff'	.	.	.	.	.	.	.	.	.	.	.	.	.	.	.	.	.	.	.	.	.	.	.	.	.
8D'~	.	8D'~	.	16A'	.	16f'	.	16dd'	.	4d	4D	.	4ff	4a	-ści.	.	.	.	.	.	.	.	.	.	.	.	.	4g	.	4ee	.	.	.
.	.	.	.	16d'JJ	.	16a'JJ	.	16ff'JJ	.	.	.	.	.	.	.	.	.	.	.	.	.	.	.	.	.	.	.	.	.	.	.	.	.
8D'~	.	8D'~	.	16A'LL	.	16f'LL	.	16dd'LL	.	.	.	.	.	.	.	.	.	.	.	.	.	.	.	.	.	.	.	.	.	.	.	.	.
.	.	.	.	16A'	.	16f'	.	16dd'	.	.	.	.	.	.	.	.	.	.	.	.	.	.	.	.	.	.	.	.	.	.	.	.	.
8D'~J	.	8D'~J	.	16F'	.	16d'	.	16a'	.	8r	8r	.	8r	8r	.	.	.	.	.	.	.	.	.	.	.	.	.	4f	.	4dd	.	.	.
.	.	.	.	16A'JJ	.	16f'JJ	.	16dd'JJ	.	.	.	.	.	.	.	.	.	.	.	.	.	.	.	.	.	.	.	.	.	.	.	.	.
8D'~L	.	8D'~L	.	16F'LL	.	16d'LL	.	16a'LL	.	4r	4r	.	4r	4r	.	.	.	.	.	.	.	.	2r	4r	.	.	.	.	.	.	.	.	.
.	.	.	.	16F'	.	16d'	.	16a'	.	.	.	.	.	.	.	.	.	.	.	.	.	.	.	.	.	.	.	.	.	.	.	.	.
8D'~	.	8D'~	.	16D'	.	16A'	.	16f'	.	.	.	.	.	.	.	.	.	.	.	.	.	.	.	.	.	.	.	4e	.	4cc	.	.	.
.	.	.	.	16F'JJ	.	16d'JJ	.	16a'JJ	.	.	.	.	.	.	.	.	.	.	.	.	.	.	.	.	.	.	.	.	.	.	.	.	.
8D'~	.	8D'~	.	16F'LL	.	16A'LL	.	16d'LL	.	8dL	8DL	.	8ddL	8aL	Wszy-	.	.	.	.	.	.	.	.	8ggL	.	.	.	.	.	.	.	.	.
.	.	.	.	16A'	.	16d'	.	16f'	.	.	.	.	.	.	.	.	.	.	.	.	.	.	.	.	.	.	.	.	.	.	.	.	.
8C'~J	.	8C'~J	.	16d'	.	16f'	.	16a'	.	8dJ	8DJ	.	8eeJ	8aJ	-stko	.	.	.	.	.	.	.	.	8eeJ	.	.	.	8d	.	8a	.	.	.
.	.	.	.	16f'JJ	.	16a'JJ	.	16dd'JJ	.	.	.	.	.	.	.	.	.	.	.	.	.	.	.	.	.	.	.	.	.	.	.	.	.
=	=	=	=	=	=	=	=	=	=	=	=	=	=	=	=	=	=	=	=	=	=	=	=	=	=	=	=	=	=	=	=	=	=
8BB-'~L	.	8BB-'~L	.	16d'LL	.	16a'LL	.	16ff'LL	.	8d	8F	.	8ff	8b-	zno-	.	1r	.	.	1r	.	.	2BB-: 2F: 2B-:	2d: 2f: 2b-: 2cc: 2dd: 2ff:	.	1r	.	8e	.	8cc	.	1r	.
.	.	.	.	16d'	.	16a'	.	16ff'	.	.	.	.	.	.	.	.	.	.	.	.	.	.	.	.	.	.	.	.	.	.	.	.	.
8BB-'~	.	8BB-'~	.	16A'	.	16f'	.	16dd'	.	4B-	4F	.	4dd	4f	-si,	.	.	.	.	.	.	.	.	.	.	.	.	2f	.	2dd	.	.	.
.	.	.	.	16d'JJ	.	16a'JJ	.	16ff'JJ	.	.	.	.	.	.	.	.	.	.	.	.	.	.	.	.	.	.	.	.	.	.	.	.	.
8BB-'~	.	8BB-'~	.	16A'LL	.	16f'LL	.	16dd'LL	.	.	.	.	.	.	.	.	.	.	.	.	.	.	.	.	.	.	.	.	.	.	.	.	.
.	.	.	.	16A'	.	16f'	.	16dd'	.	.	.	.	.	.	.	.	.	.	.	.	.	.	.	.	.	.	.	.	.	.	.	.	.
8BB-'~J	.	8BB-'~J	.	16F'	.	16d'	.	16a'	.	4r	4r	.	4r	4r	.	.	.	.	.	.	.	.	.	.	.	.	.	.	.	.	.	.	.
.	.	.	.	16A'JJ	.	16f'JJ	.	16dd'JJ	.	.	.	.	.	.	.	.	.	.	.	.	.	.	.	.	.	.	.	.	.	.	.	.	.
8BB-'~L	.	8BB-'~L	.	16F'LL	.	16d'LL	.	16a'LL	.	.	.	.	.	.	.	.	.	.	.	.	.	.	2r	8r	.	.	.	.	.	.	.	.	.
.	.	.	.	16F'	.	16d'	.	16a'	.	.	.	.	.	.	.	.	.	.	.	.	.	.	.	.	.	.	.	.	.	.	.	.	.
8BB-'~	.	8BB-'~	.	16D'	.	16A'	.	16f'	.	8B-L	8FL	.	8ddL	8fL	wszy-	.	.	.	.	.	.	.	.	8ddL 8bb-	.	.	.	8r	.	8r	.	.	.
.	.	.	.	16F'JJ	.	16d'JJ	.	16a'JJ	.	.	.	.	.	.	.	.	.	.	.	.	.	.	.	.	.	.	.	.	.	.	.	.	.
8BB-'~	.	8BB-'~	.	16F'LL	.	16A'LL	.	16d'LL	.	8c	8F	.	8cc	8f	-stkie-	.	.	.	.	.	.	.	.	8cc 8aa	.	.	.	16dLL	.	16b-LL	.	.	.
.	.	.	.	16A'	.	16d'	.	16f'	.	.	.	.	.	.	.	.	.	.	.	.	.	.	.	.	.	.	.	16e	.	16cc	.	.	.
8BB-'~J	.	8BB-'~J	.	16d'	.	16f'	.	16a'	.	8dJ	8GJ	.	8b-J	8fJ	-mu	.	.	.	.	.	.	.	.	8b-J 8gg	.	.	.	16f	.	16dd	.	.	.
.	.	.	.	16f'JJ	.	16a'JJ	.	16dd'JJ	.	.	.	.	.	.	.	.	.	.	.	.	.	.	.	.	.	.	.	16gJJ	.	16eeJJ	.	.	.
=	=	=	=	=	=	=	=	=	=	=	=	=	=	=	=	=	=	=	=	=	=	=	=	=	=	=	=	=	=	=	=	=	=
8F'~L	.	8F'~L	.	16f'LL	.	16cc'LL	.	16aa'LL	.	8c	8A	.	8cc	8f	wie-	.	1r	.	.	1r	.	.	2F: 2c:	2f: 2a: 2cc: 2ff: 2aa:	.	1r	.	8a	.	8ff	.	1r	.
.	.	.	.	16f'	.	16cc'	.	16aa'	.	.	.	.	.	.	.	.	.	.	.	.	.	.	.	.	.	.	.	.	.	.	.	.	.
8F'~	.	8F'~	.	16c'	.	16a'	.	16ff'	.	4c	4A	.	4ff	4f	-rzy,	.	.	.	.	.	.	.	.	.	.	.	.	4g	.	4ee	.	.	.
.	.	.	.	16f'JJ	.	16cc'JJ	.	16aa'JJ	.	.	.	.	.	.	.	.	.	.	.	.	.	.	.	.	.	.	.	.	.	.	.	.	.
8F'~	.	8F'~	.	16c'LL	.	16a'LL	.	16ff'LL	.	.	.	.	.	.	.	.	.	.	.	.	.	.	.	.	.	.	.	.	.	.	.	.	.
.	.	.	.	16c'	.	16a'	.	16ff'	.	.	.	.	.	.	.	.	.	.	.	.	.	.	.	.	.	.	.	.	.	.	.	.	.
8F'~J	.	8F'~J	.	16A'	.	16f'	.	16cc'	.	8r	8r	.	8r	8r	.	.	.	.	.	.	.	.	.	.	.	.	.	4f	.	4dd	.	.	.
.	.	.	.	16c'JJ	.	16a'JJ	.	16ff'JJ	.	.	.	.	.	.	.	.	.	.	.	.	.	.	.	.	.	.	.	.	.	.	.	.	.
8F'~L	.	8F'~L	.	16A'LL	.	16f'LL	.	16cc'LL	.	4r	4r	.	4r	4r	.	.	.	.	.	.	.	.	2r	4r	.	.	.	.	.	.	.	.	.
.	.	.	.	16A'	.	16f'	.	16cc'	.	.	.	.	.	.	.	.	.	.	.	.	.	.	.	.	.	.	.	.	.	.	.	.	.
8F'~	.	8F'~	.	16F'	.	16c'	.	16a'	.	.	.	.	.	.	.	.	.	.	.	.	.	.	.	.	.	.	.	4e	.	4cc	.	.	.
.	.	.	.	16A'JJ	.	16f'JJ	.	16cc'JJ	.	.	.	.	.	.	.	.	.	.	.	.	.	.	.	.	.	.	.	.	.	.	.	.	.
8F'~	.	8F'~	.	16F'LL	.	16c'LL	.	16a'LL	.	4f	4F	.	4ff	4a	we	.	.	.	.	.	.	.	.	8r	.	.	.	.	.	.	.	.	.
.	.	.	.	16A'	.	16f'	.	16cc'	.	.	.	.	.	.	.	.	.	.	.	.	.	.	.	.	.	.	.	.	.	.	.	.	.
8F'~J	.	8F'~J	.	16d'	.	16a'	.	16ff'	.	.	.	.	.	.	.	.	.	.	.	.	.	.	.	8cc	.	.	.	8f	.	8dd	.	.	.
.	.	.	.	16f'JJ	.	16cc'JJ	.	16aa'JJ	.	.	.	.	.	.	.	.	.	.	.	.	.	.	.	.	.	.	.	.	.	.	.	.	.
=	=	=	=	=	=	=	=	=	=	=	=	=	=	=	=	=	=	=	=	=	=	=	=	=	=	=	=	=	=	=	=	=	=
8C'~L	.	8C'~L	.	16d'LL	.	16cc'LL	.	16gg'LL	.	4f	4c	.	4ff	4cc	wszy-	.	1r	.	.	1r	.	.	4C	4r	.	1r	.	2.g	.	2.cc	.	2r	.
.	.	.	.	16d'	.	16cc'	.	16gg'	.	.	.	.	.	.	.	.	.	.	.	.	.	.	.	.	.	.	.	.	.	.	.	.	.
8C'~	.	8C'~	.	16c'	.	16g'	.	16ee'	.	.	.	.	.	.	.	.	.	.	.	.	.	.	.	.	.	.	.	.	.	.	.	.	.
.	.	.	.	16e'JJ	.	16cc'JJ	.	16gg'JJ	.	.	.	.	.	.	.	.	.	.	.	.	.	.	.	.	.	.	.	.	.	.	.	.	.
8C'~	.	8C'~	.	16c'LL	.	16g'LL	.	16ee'LL	.	8eL	8cL	.	8ggL	8ccL	-stkim	.	.	.	.	.	.	.	4r	4c: 4g: 4cc: 4ee: 4gg: 4ccc:	.	.	.	.	.	.	.	.	.
.	.	.	.	16G'	.	16e'	.	16cc'	.	.	.	.	.	.	.	.	.	.	.	.	.	.	.	.	.	.	.	.	.	.	.	.	.
8C'~J	.	8C'~J	.	16E'	.	16c'	.	16g'	.	8eJ	8cJ	.	8ggJ	8ccJ	po-	.	.	.	.	.	.	.	.	.	.	.	.	.	.	.	.	.	.
.	.	.	.	16G'JJ	.	16e'JJ	.	16cc'JJ	.	.	.	.	.	.	.	.	.	.	.	.	.	.	.	.	.	.	.	.	.	.	.	.	.
8C'~L	.	8C'~L	.	16c'LL	.	16g'LL	.	16ee'LL	.	4d	4c	.	4ff	4a	-kła-	.	.	.	.	.	.	.	2r	2r	.	.	.	.	.	.	.	4r	.
.	.	.	.	16G'	.	16e'	.	16cc'	.	.	.	.	.	.	.	.	.	.	.	.	.	.	.	.	.	.	.	.	.	.	.	.	.
8C'~	.	8C'~	.	16E'	.	16c'	.	16g'	.	.	.	.	.	.	.	.	.	.	.	.	.	.	.	.	.	.	.	.	.	.	.	.	.
.	.	.	.	16C'JJ	.	16G'JJ	.	16e'JJ	.	.	.	.	.	.	.	.	.	.	.	.	.	.	.	.	.	.	.	.	.	.	.	.	.
8AA'~	.	8AA'~	.	8EL	.	8cL	.	8gL	.	8cL	8AL	.	8eeL	8gL	-da	.	.	.	.	.	.	.	.	.	.	.	.	4r	.	4r	.	4r	.
8AA'~J	.	8AA'~J	.	8cJ	.	8gJ	.	8eeJ	.	8cJ	8AJ	.	8eeJ	8gJ	na-	.	.	.	.	.	.	.	.	.	.	.	.	.	.	.	.	.	.
=	=	=	=	=	=	=	=	=	=	=	=	=	=	=	=	=	=	=	=	=	=	=	=	=	=	=	=	=	=	=	=	=	=
8D'~L	.	8D'~L	.	8e	.	8g	.	8ee	.	8e	8D	.	8ee	8g	-dzie-	.	1r	.	.	1r	.	.	1r	1r	.	1r	.	1r	.	1r	.	1r	.
8D'~	.	8D'~	.	4.d	.	4.a	.	4.ff	.	4d	4D	.	4ff	4a	-ję,	.	.	.	.	.	.	.	.	.	.	.	.	.	.	.	.	.	.
8D'~	.	8D'~	.	.	.	.	.	.	.	.	.	.	.	.	.	.	.	.	.	.	.	.	.	.	.	.	.	.	.	.	.	.	.
8D'~J	.	8D'~J	.	.	.	.	.	.	.	8r	8r	.	8r	8r	.	.	.	.	.	.	.	.	.	.	.	.	.	.	.	.	.	.	.
6D	.	6D	.	6d	.	6f	.	6ff	.	6d	6D	.	6ff	6f	wszy-	.	.	.	.	.	.	.	.	.	.	.	.	.	.	.	.	.	.
6E	.	6E	.	6c	.	6g	.	6ee	.	6c	6E	.	6ee	6g	-stko	.	.	.	.	.	.	.	.	.	.	.	.	.	.	.	.	.	.
6F	.	6F	.	6d	.	6a	.	6dd	.	6d	6F	.	6dd	6a	prze-	.	.	.	.	.	.	.	.	.	.	.	.	.	.	.	.	.	.
=	=	=	=	=	=	=	=	=	=	=	=	=	=	=	=	=	=	=	=	=	=	=	=	=	=	=	=	=	=	=	=	=	=
1A	.	1A	.	4c	.	4a	.	4ee	.	4c	4A	.	4ee	4a	-trzy-	.	1r	.	.	1r	.	.	1r	1r	.	8r	.	1r	.	2r	.	1r	.
.	.	.	.	.	.	.	.	.	.	.	.	.	.	.	.	.	.	.	.	.	.	.	.	.	.	8AAL	f	.	.	.	.	.	.
.	.	.	.	2.e	.	2.g	.	2.cc	.	2e	2A	.	2cc	2g	-ma.	.	.	.	.	.	.	.	.	.	.	8E	.	.	.	.	.	.	.
.	.	.	.	.	.	.	.	.	.	.	.	.	.	.	.	.	.	.	.	.	.	.	.	.	.	8GJ	.	.	.	.	.	.	.
.	.	.	.	.	.	.	.	.	.	.	.	.	.	.	.	.	.	.	.	.	.	.	.	.	.	8A	.	.	.	4e	.	.	.
.	.	.	.	.	.	.	.	.	.	.	.	.	.	.	.	.	.	.	.	.	.	.	.	.	.	4c	.	.	.	.	.	.	.
.	.	.	.	.	.	.	.	.	.	4r	4r	.	4r	4r	.	.	.	.	.	.	.	.	.	.	.	.	.	.	.	8aL	.	.	.
.	.	.	.	.	.	.	.	.	.	.	.	.	.	.	.	.	.	.	.	.	.	.	.	.	.	16B-LL	.	.	.	8ccJ	.	.	.
.	.	.	.	.	.	.	.	.	.	.	.	.	.	.	.	.	.	.	.	.	.	.	.	.	.	16AJJ	.	.	.	.	.	.	.
=	=	=	=	=	=	=	=	=	=	=	=	=	=	=	=	=	=	=	=	=	=	=	=	=	=	=	=	=	=	=	=	=	=
1G	.	1G	.	2.d	.	2.b-	.	2dd	.	4d	4G	.	4dd	4b-	Mi-	.	1r	.	.	1r	.	.	1r	1r	.	8GL	.	1r	.	4.dd	.	1r	.
.	.	.	.	.	.	.	.	.	.	.	.	.	.	.	.	.	.	.	.	.	.	.	.	.	.	8D	.	.	.	.	.	.	.
.	.	.	.	.	.	.	.	.	.	4d	4G	.	4dd	4b-	-łość	.	.	.	.	.	.	.	.	.	.	8BB-	.	.	.	.	.	.	.
.	.	.	.	.	.	.	.	.	.	.	.	.	.	.	.	.	.	.	.	.	.	.	.	.	.	[8GGJ	.	.	.	8cc	.	.	.
.	.	.	.	.	.	.	.	4ee	.	4d	4G	.	4ee	4b-	ni-	.	.	.	.	.	.	.	.	.	.	8GGL]	.	.	.	4b-	.	.	.
.	.	.	.	.	.	.	.	.	.	.	.	.	.	.	.	.	.	.	.	.	.	.	.	.	.	8BB-	.	.	.	.	.	.	.
.	.	.	.	4c	.	4a	.	4ff	.	4c	4G	.	4ff	4a	-gdy	.	.	.	.	.	.	.	.	.	.	8D	.	.	.	4a	.	.	.
.	.	.	.	.	.	.	.	.	.	.	.	.	.	.	.	.	.	.	.	.	.	.	.	.	.	8GJ	.	.	.	.	.	.	.
=	=	=	=	=	=	=	=	=	=	=	=	=	=	=	=	=	=	=	=	=	=	=	=	=	=	=	=	=	=	=	=	=	=
2B-	.	2B-	.	1d	.	2f	.	2dd	.	4d	4B-	.	4dd	4f	nie	.	1r	.	.	1r	.	.	1r	1r	.	4B-	.	1r	.	2f	.	1r	.
.	.	.	.	.	.	.	.	.	.	4d	4B-	.	4dd	4f	u-	.	.	.	.	.	.	.	.	.	.	4A	.	.	.	.	.	.	.
2BB-	.	2BB-	.	.	.	4b-	.	4ee	.	2d	2B-	.	(4ee	(4b-	-sta-	.	.	.	.	.	.	.	.	.	.	8FL	.	.	.	4b-	.	.	.
.	.	.	.	.	.	.	.	.	.	.	.	.	.	.	.	.	.	.	.	.	.	.	.	.	.	8DJ	.	.	.	.	.	.	.
.	.	.	.	.	.	4a	.	4ff	.	.	.	.	4ff)	4a)	.	.	.	.	.	.	.	.	.	.	.	4BB-	.	.	.	4a	.	.	.
=	=	=	=	=	=	=	=	=	=	=	=	=	=	=	=	=	=	=	=	=	=	=	=	=	=	=	=	=	=	=	=	=	=
[1C	.	[1C	.	1f	.	[1g	.	[1cc	.	(1f	[1c	.	[1cc	[1g	-je.	.	1r	.	.	1r	.	.	1r	1r	.	1C	.	8r	.	1g	.	8r	.
.	.	.	.	.	.	.	.	.	.	.	.	.	.	.	.	.	.	.	.	.	.	.	.	.	.	.	.	8cL	f	.	.	8gL	f
.	.	.	.	.	.	.	.	.	.	.	.	.	.	.	.	.	.	.	.	.	.	.	.	.	.	.	.	8e	.	.	.	8cc	.
.	.	.	.	.	.	.	.	.	.	.	.	.	.	.	.	.	.	.	.	.	.	.	.	.	.	.	.	8fJ	.	.	.	8ddJ	.
.	.	.	.	.	.	.	.	.	.	.	.	.	.	.	.	.	.	.	.	.	.	.	.	.	.	.	.	16gLL	.	.	.	16eeLL	.
.	.	.	.	.	.	.	.	.	.	.	.	.	.	.	.	.	.	.	.	.	.	.	.	.	.	.	.	16f	.	.	.	16dd	.
.	.	.	.	.	.	.	.	.	.	.	.	.	.	.	.	.	.	.	.	.	.	.	.	.	.	.	.	16g	.	.	.	16ee	.
.	.	.	.	.	.	.	.	.	.	.	.	.	.	.	.	.	.	.	.	.	.	.	.	.	.	.	.	16aJJ	.	.	.	16ffJJ	.
.	.	.	.	.	.	.	.	.	.	.	.	.	.	.	.	.	.	.	.	.	.	.	.	.	.	.	.	16b-LL	.	.	.	16ggLL	.
.	.	.	.	.	.	.	.	.	.	.	.	.	.	.	.	.	.	.	.	.	.	.	.	.	.	.	.	16a	.	.	.	16ff	.
.	.	.	.	.	.	.	.	.	.	.	.	.	.	.	.	.	.	.	.	.	.	.	.	.	.	.	.	16b-	.	.	.	16gg	.
.	.	.	.	.	.	.	.	.	.	.	.	.	.	.	.	.	.	.	.	.	.	.	.	.	.	.	.	16fJJ	.	.	.	16aaJJ	.
=	=	=	=	=	=	=	=	=	=	=	=	=	=	=	=	=	=	=	=	=	=	=	=	=	=	=	=	=	=	=	=	=	=
2C]	.	2C]	.	2e	.	2g]	.	2cc]	.	2e)	2c]	.	2cc]	2g]	.	.	1r	.	.	1r	.	.	1r	1r	.	1r	.	2g	.	1r	.	4.bb-	.
.	.	.	.	.	.	.	.	.	.	.	.	.	.	.	.	.	.	.	.	.	.	.	.	.	.	.	.	.	.	.	.	16aaLL	.
.	.	.	.	.	.	.	.	.	.	.	.	.	.	.	.	.	.	.	.	.	.	.	.	.	.	.	.	.	.	.	.	16bb-JJ	.
2C	.	2C	.	2e	.	2g	.	2cc	.	2e	2c	ff ff	2cc	2g	To	ff ff	.	.	.	.	.	.	.	.	.	.	.	4a	.	.	.	2ccc	.
.	.	.	.	.	.	.	.	.	.	.	.	.	.	.	.	.	.	.	.	.	.	.	.	.	.	.	.	4b-	.	.	.	.	.
=	=	=	=	=	=	=	=	=	=	=	=	=	=	=	=	=	=	=	=	=	=	=	=	=	=	=	=	=	=	=	=	=	=
[1BB-	.	[1BB-	.	[1d	.	[1b-	.	[1ff	.	4.d	4.B-	.	4.ff	4.b-	Bóg	.	1r	.	.	1r	.	.	4BB-	4r	ff	1r	.	1r	.	1r	.	1r	.
.	.	.	.	.	.	.	.	.	.	.	.	.	.	.	.	.	.	.	.	.	.	.	4r	2b-: 2dd: 2ff: 2bb-:	.	.	.	.	.	.	.	.	.
.	.	.	.	.	.	.	.	.	.	8c	8B-	.	8ff	8cc	mi-	.	.	.	.	.	.	.	.	.	.	.	.	.	.	.	.	.	.
.	.	.	.	.	.	.	.	.	.	4B-	4B-	.	4ff	4dd	-ło-	.	.	.	.	.	.	.	2r	.	.	.	.	.	.	.	.	.	.
.	.	.	.	.	.	.	.	.	.	4f	4B-	.	4ff	4cc	-ścią	.	.	.	.	.	.	.	.	4r	.	.	.	.	.	.	.	.	.
=	=	=	=	=	=	=	=	=	=	=	=	=	=	=	=	=	=	=	=	=	=	=	=	=	=	=	=	=	=	=	=	=	=
1BB-_	.	1BB-_	.	1d]	.	1b-]	.	1ff]	.	1f	1B-	.	1ff	1dd	jest!	.	1r	.	.	1r	.	.	16BB-LL	4.r	.	1r	.	1r	.	1r	.	1r	.
.	.	.	.	.	.	.	.	.	.	.	.	.	.	.	.	.	.	.	.	.	.	.	16F	.	.	.	.	.	.	.	.	.	.
.	.	.	.	.	.	.	.	.	.	.	.	.	.	.	.	.	.	.	.	.	.	.	16D	.	.	.	.	.	.	.	.	.	.
.	.	.	.	.	.	.	.	.	.	.	.	.	.	.	.	.	.	.	.	.	.	.	16B-JJ	.	.	.	.	.	.	.	.	.	.
.	.	.	.	.	.	.	.	.	.	.	.	.	.	.	.	.	.	.	.	.	.	.	16FLL	.	.	.	.	.	.	.	.	.	.
.	.	.	.	.	.	.	.	.	.	.	.	.	.	.	.	.	.	.	.	.	.	.	16dJJ	.	.	.	.	.	.	.	.	.	.
.	.	.	.	.	.	.	.	.	.	.	.	.	.	.	.	.	.	.	.	.	.	.	8r	16B-LL	.	.	.	.	.	.	.	.	.
.	.	.	.	.	.	.	.	.	.	.	.	.	.	.	.	.	.	.	.	.	.	.	.	16fJJ	.	.	.	.	.	.	.	.	.
.	.	.	.	.	.	.	.	.	.	.	.	.	.	.	.	.	.	.	.	.	.	.	16r	16dLL	.	.	.	.	.	.	.	.	.
.	.	.	.	.	.	.	.	.	.	.	.	.	.	.	.	.	.	.	.	.	.	.	16r	16b-	.	.	.	.	.	.	.	.	.
.	.	.	.	.	.	.	.	.	.	.	.	.	.	.	.	.	.	.	.	.	.	.	8r	16f	.	.	.	.	.	.	.	.	.
.	.	.	.	.	.	.	.	.	.	.	.	.	.	.	.	.	.	.	.	.	.	.	.	16ddJJ	.	.	.	.	.	.	.	.	.
.	.	.	.	.	.	.	.	.	.	.	.	.	.	.	.	.	.	.	.	.	.	.	4r	16b-LL	.	.	.	.	.	.	.	.	.
.	.	.	.	.	.	.	.	.	.	.	.	.	.	.	.	.	.	.	.	.	.	.	.	16ff	.	.	.	.	.	.	.	.	.
.	.	.	.	.	.	.	.	.	.	.	.	.	.	.	.	.	.	.	.	.	.	.	.	16ddd	.	.	.	.	.	.	.	.	.
.	.	.	.	.	.	.	.	.	.	.	.	.	.	.	.	.	.	.	.	.	.	.	.	16cccJJ	.	.	.	.	.	.	.	.	.
=	=	=	=	=	=	=	=	=	=	=	=	=	=	=	=	=	=	=	=	=	=	=	=	=	=	=	=	=	=	=	=	=	=
1BB-_	.	1BB-_	.	4f'~	.	4cc'~	.	4ff'~	.	2f	2B-	.	2ff	2cc	Bóg	.	1r	.	.	1r	.	.	4BB-: 4F: 4B-:	4d: 4f: 4b-: 4cc: 4dd: 4ff: 4bb-:	.	1r	.	1r	.	1r	.	1r	.
.	.	.	.	4f'~	.	4cc'~	.	4ff'~	.	.	.	.	.	.	.	.	.	.	.	.	.	.	4r	4r	.	.	.	.	.	.	.	.	.
.	.	.	.	4f'~	.	4cc'~	.	4ff'~	.	2f	2B-	.	2ff	2cc	mi-	.	.	.	.	.	.	.	4BB-: 4F: 4B-:	4d: 4f: 4b-: 4cc: 4dd: 4ff: 4ccc:	.	.	.	.	.	.	.	.	.
.	.	.	.	4f'~	.	4cc'~	.	4ff'~	.	.	.	.	.	.	.	.	.	.	.	.	.	.	4r	4r	.	.	.	.	.	.	.	.	.
=	=	=	=	=	=	=	=	=	=	=	=	=	=	=	=	=	=	=	=	=	=	=	=	=	=	=	=	=	=	=	=	=	=
1BB-]	<[	1BB-]	<[	8f'~L	<	8cc'~L	<	8ff'~L	<	2f	2B-	.	2ff	2cc	-ło-	.	1r	.	.	1r	.	.	2BB-: 2F: 2B-:	2d: 2f: 2cc: 2dd: 2ff: 2bb-: 2ddd:	.	1r	.	1r	.	1r	.	1r	.
.	.	.	.	8f'~	.	8cc'~	.	8ff'~	.	.	.	.	.	.	.	.	.	.	.	.	.	.	.	.	.	.	.	.	.	.	.	.	.
.	.	.	.	8f'~	.	8cc'~	.	8ff'~	.	.	.	.	.	.	.	.	.	.	.	.	.	.	.	.	.	.	.	.	.	.	.	.	.
.	.	.	.	8f'~J	.	8cc'~J	.	8ff'~J	.	.	.	.	.	.	.	.	.	.	.	.	.	.	.	.	.	.	.	.	.	.	.	.	.
.	.	.	.	16dLL	.	16b-LL	.	16ffLL	.	2g	2B-	.	2ff	2cc	-ścią	.	.	.	.	.	.	.	2r	2r	.	.	.	.	.	.	.	.	.
.	.	.	.	16c	.	16a	.	16ee	.	.	.	.	.	.	.	.	.	.	.	.	.	.	.	.	.	.	.	.	.	.	.	.	.
.	.	.	.	16B-	.	16g	.	16dd	.	.	.	.	.	.	.	.	.	.	.	.	.	.	.	.	.	.	.	.	.	.	.	.	.
.	.	.	.	16AJJ	.	16fJJ	.	16ccJJ	.	.	.	.	.	.	.	.	.	.	.	.	.	.	.	.	.	.	.	.	.	.	.	.	.
.	.	.	.	16dLL	.	16b-LL	.	16ffLL	.	.	.	.	.	.	.	.	.	.	.	.	.	.	.	.	.	.	.	.	.	.	.	.	.
.	.	.	.	16c	.	16a	.	16ee	.	.	.	.	.	.	.	.	.	.	.	.	.	.	.	.	.	.	.	.	.	.	.	.	.
.	.	.	.	16B-	.	16g	.	16dd	.	.	.	.	.	.	.	.	.	.	.	.	.	.	.	.	.	.	.	.	.	.	.	.	.
.	.	.	.	16GJJ	[[	16b-JJ	[[	16eeJJ	[[	.	.	.	.	.	.	.	.	.	.	.	.	.	.	.	.	.	.	.	.	.	.	.	.
=	=	=	=	=	=	=	=	=	=	=	=	=	=	=	=	=	=	=	=	=	=	=	=	=	=	=	=	=	=	=	=	=	=
[1FF	ff	[1FF	ff	16c^LL	ff	16a^LL	ff	16ff^LL	ff	[1a	[1F	fff fff	[1ff	[1cc	jest!	fff fff	1r	.	.	1r	.	.	2FF: 2F: 2c:	2f: 2a: 2cc: 2ff: 2aa: 2ccc: 2fff:	.	1r	.	1r	.	1r	.	1r	.
.	.	.	.	16f	.	16cc	.	16ccc	.	.	.	.	.	.	.	.	.	.	.	.	.	.	.	.	.	.	.	.	.	.	.	.	.
.	.	.	.	16a	.	16ff	.	16fff	.	.	.	.	.	.	.	.	.	.	.	.	.	.	.	.	.	.	.	.	.	.	.	.	.
.	.	.	.	16c^JJ	.	16a^JJ	.	16ff^JJ	.	.	.	.	.	.	.	.	.	.	.	.	.	.	.	.	.	.	.	.	.	.	.	.	.
.	.	.	.	16fLL	.	16ccLL	.	16cccLL	.	.	.	.	.	.	.	.	.	.	.	.	.	.	.	.	.	.	.	.	.	.	.	.	.
.	.	.	.	16c	.	16a	.	16ff	.	.	.	.	.	.	.	.	.	.	.	.	.	.	.	.	.	.	.	.	.	.	.	.	.
.	.	.	.	16A^	.	16f^	.	16cc^	.	.	.	.	.	.	.	.	.	.	.	.	.	.	.	.	.	.	.	.	.	.	.	.	.
.	.	.	.	16fJJ	.	16ccJJ	.	16aaJJ	.	.	.	.	.	.	.	.	.	.	.	.	.	.	.	.	.	.	.	.	.	.	.	.	.
.	.	.	.	16c^LL	.	16a^LL	.	16ff^LL	.	.	.	.	.	.	.	.	.	.	.	.	.	.	2r	2r	.	.	.	.	.	.	.	.	.
.	.	.	.	16f	.	16cc	.	16ccc	.	.	.	.	.	.	.	.	.	.	.	.	.	.	.	.	.	.	.	.	.	.	.	.	.
.	.	.	.	16a	.	16ff	.	16fff	.	.	.	.	.	.	.	.	.	.	.	.	.	.	.	.	.	.	.	.	.	.	.	.	.
.	.	.	.	16c^JJ	.	16a^JJ	.	16ff^JJ	.	.	.	.	.	.	.	.	.	.	.	.	.	.	.	.	.	.	.	.	.	.	.	.	.
.	.	.	.	16fLL	.	16ccLL	.	16cccLL	.	.	.	.	.	.	.	.	.	.	.	.	.	.	.	.	.	.	.	.	.	.	.	.	.
.	.	.	.	16c	.	16a	.	16ff	.	.	.	.	.	.	.	.	.	.	.	.	.	.	.	.	.	.	.	.	.	.	.	.	.
.	.	.	.	16A^	.	16f^	.	16cc^	.	.	.	.	.	.	.	.	.	.	.	.	.	.	.	.	.	.	.	.	.	.	.	.	.
.	.	.	.	16fJJ	.	16ccJJ	.	16aaJJ	.	.	.	.	.	.	.	.	.	.	.	.	.	.	.	.	.	.	.	.	.	.	.	.	.
=	=	=	=	=	=	=	=	=	=	=	=	=	=	=	=	=	=	=	=	=	=	=	=	=	=	=	=	=	=	=	=	=	=
!	!	!	!	!	!	!	!	!	!	!	!	!	!	!	!	!	!	!	!	!	!	!	!	!	!	!	!	!	!	!	!	!LO:TX:a:t=rit.	!
1FF_	.	1FF_	.	16c^LL	.	16a^LL	.	16ff^LL	.	1a_	1F_	.	1ff_	1cc_	.	.	1r	.	.	1r	.	.	1r	1r	.	2.r	.	2.r	.	2.r	.	2.r	.
.	.	.	.	16f	.	16cc	.	16ccc	.	.	.	.	.	.	.	.	.	.	.	.	.	.	.	.	.	.	.	.	.	.	.	.	.
.	.	.	.	16a	.	16ff	.	16fff	.	.	.	.	.	.	.	.	.	.	.	.	.	.	.	.	.	.	.	.	.	.	.	.	.
.	.	.	.	16c^JJ	.	16a^JJ	.	16ff^JJ	.	.	.	.	.	.	.	.	.	.	.	.	.	.	.	.	.	.	.	.	.	.	.	.	.
.	.	.	.	16fLL	.	16ccLL	.	16cccLL	.	.	.	.	.	.	.	.	.	.	.	.	.	.	.	.	.	.	.	.	.	.	.	.	.
.	.	.	.	16c	.	16a	.	16ff	.	.	.	.	.	.	.	.	.	.	.	.	.	.	.	.	.	.	.	.	.	.	.	.	.
.	.	.	.	16A^	.	16f^	.	16cc^	.	.	.	.	.	.	.	.	.	.	.	.	.	.	.	.	.	.	.	.	.	.	.	.	.
.	.	.	.	16fJJ	.	16ccJJ	.	16aaJJ	.	.	.	.	.	.	.	.	.	.	.	.	.	.	.	.	.	.	.	.	.	.	.	.	.
.	.	.	.	16c^LL	.	16a^LL	.	16ff^LL	.	.	.	.	.	.	.	.	.	.	.	.	.	.	.	.	.	.	.	.	.	.	.	.	.
.	.	.	.	16f	.	16cc	.	16ccc	.	.	.	.	.	.	.	.	.	.	.	.	.	.	.	.	.	.	.	.	.	.	.	.	.
.	.	.	.	16a	.	16ff	.	16fff	.	.	.	.	.	.	.	.	.	.	.	.	.	.	.	.	.	.	.	.	.	.	.	.	.
.	.	.	.	16c^JJ	.	16a^JJ	.	16ff^JJ	.	.	.	.	.	.	.	.	.	.	.	.	.	.	.	.	.	.	.	.	.	.	.	.	.
.	.	.	.	16fLL	.	16ccLL	.	16cccLL	.	.	.	.	.	.	.	.	.	.	.	.	.	.	.	.	.	8FL	ff	8aL	ff	4f	ff	8ffL	ff
.	.	.	.	16c	.	16a	.	16ff	.	.	.	.	.	.	.	.	.	.	.	.	.	.	.	.	.	.	.	.	.	.	.	.	.
.	.	.	.	16A^	.	16f^	.	16cc^	.	.	.	.	.	.	.	.	.	.	.	.	.	.	.	.	.	8CJ	.	8gJ	.	.	.	8ggJ	.
.	.	.	.	16fJJ	.	16ccJJ	.	16aaJJ	.	.	.	.	.	.	.	.	.	.	.	.	.	.	.	.	.	.	.	.	.	.	.	.	.
=	=	=	=	=	=	=	=	=	=	=	=	=	=	=	=	=	=	=	=	=	=	=	=	=	=	=	=	=	=	=	=	=	=
1FF]	.	1FF]	.	1c	.	1a	.	1ff	.	1a]	1F]	.	1ff]	1cc]	.	.	1r	.	.	1r	.	.	4FF	4r	.	1FF	.	1f	.	1cc	.	1aam	.
.	.	.	.	.	.	.	.	.	.	.	.	.	.	.	.	.	.	.	.	.	.	.	4r	4fff	.	.	.	.	.	.	.	.	.
.	.	.	.	.	.	.	.	.	.	.	.	.	.	.	.	.	.	.	.	.	.	.	2r	2r	.	.	.	.	.	.	.	.	.
*	*	*	*	*	*	*	*	*	*	*v	*v	*	*	*	*	*	*	*	*	*	*	*	*	*	*	*	*	*	*	*	*	*	*
*	*	*	*	*	*	*	*	*	*	*	*	*v	*v	*	*	*	*	*	*	*	*	*	*	*	*	*	*	*	*	*	*	*
=	=	=	=	=	=	=	=	=	=	=	=	=	=	=	=	=	=	=	=	=	=	=	=	=	=	=	=	=	=	=	=
1r	.	1r	.	1r	.	1r	.	1r	.	1r	.	1r	.	.	1r	.	.	1r	.	.	1r	1r	.	1r	.	1r	.	1r	.	1r	.
=	=	=	=	=	=	=	=	=	=	=	=	=	=	=	=	=	=	=	=	=	=	=	=	=	=	=	=	=	=	=	=
1r	.	1r	.	1r	.	1r	.	1r	.	1r	.	1r	.	.	1r	.	.	1r	.	.	1r	1r	.	1r	.	1r	.	1r	.	1r	.
==	==	==	==	==	==	==	==	==	==	==	==	==	==	==	==	==	==	==	==	==	==	==	==	==	==	==	==	==	==	==	==
*-	*-	*-	*-	*-	*-	*-	*-	*-	*-	*-	*-	*-	*-	*-	*-	*-	*-	*-	*-	*-	*-	*-	*-	*-	*-	*-	*-	*-	*-	*-	*-
!!!system-decoration: [(s1,s2,s3,s4)]{(s5,s6)}(s7)(s8)[(s9,s10)][(s11,s12,s13,s14,s15)]
!!!YEM: Copyright by Tomasz Kozubek. All rights reserved
!!!RDF**kern: Z = caesura
